!!!!SEGMENT: pl-wtm--r-1555--008_stefani-jozef--msza-no-14-agnus-dei.krn
!!!cenid: 18xx:1827
!!!COM: Stefani, Józef
!!!COM-rismid: pe30024097
!!!CDT: 1800/04/16-1876/03/19
!!!CNT: Polish
!!!OTL: Msza No 14 – Agnus Dei
!!!PDT:
!!!AGN: Sacred; Mass
!!!SMS-siglum: PL-Wtm
!!!SMS-shelfmark: R 1555
!!!SMS-shelfwork: 001-008 M
!!!SMS-variant:
!!!SMS-altvar:
!!!NIFC-rismid: 1001115185
!!!URL-scan: http://repozytorium.nifc.pl/skany/pl-wtm-nut--r1555
!!!ONB-nifc: UWAGA: części Mszy: 1. Kyrie, 2. Gloria, 3. Graduale, 4. Credo, 5. Offertorium, 6. Sanctus, 7. Benedictus, 8. Agnus Dei, 9. Dona nobis
**kern	**kern	**dynam	**kern	**dynam	**kern	**dynam	**kern	**dynam	**kern	**dynam	**kern	**text	**dynam	**kern	**text	**dynam	**kern	**text	**dynam	**kern	**text	**dynam	**kern	**dynam	**kern	**dynam	**kern	**dynam	**kern	**dynam	**kern	**dynam	**kern	**dynam	**kern	**dynam	**kern	**dynam	**kern	**dynam
*	*	*	*	*	*	*	*group2	*	*group2	*	*	*	*	*	*	*	*	*	*	*	*	*	*group1	*	*group1	*	*group1	*	*	*	*	*	*	*	*	*	*	*	*	*
*	*	*	*	*	*	*	*I""Violini	*	*I""Violini	*	*	*	*	*	*	*	*	*	*	*	*	*	*I""Tromboni	*	*I""Tromboni	*	*I""Tromboni	*	*	*	*	*	*	*	*	*	*	*	*	*
*part19	*part18	*part18	*part17	*part17	*part16	*part16	*part15	*part15	*part14	*part14	*part13	*part13	*part13	*part12	*part12	*part12	*part11	*part11	*part11	*part10	*part10	*part10	*part9	*part9	*part8	*part8	*part7	*part7	*part6	*part6	*part5	*part5	*part4	*part4	*part3	*part3	*part2	*part2	*part1	*part1
*staff19	*staff18	*	*staff17	*	*staff16	*	*staff15	*	*staff14	*	*staff13	*staff13	*	*staff12	*staff12	*	*staff11	*staff11	*	*staff10	*staff10	*	*staff9	*	*staff8	*	*staff7	*	*staff6	*	*staff5	*	*staff4	*	*staff3	*	*staff2	*	*staff1	*
*I"Timpani C. g	*I"C. Baſsi	*	*I"Violoncelli	*	*I"Viole	*	*	*	*	*	*I"Baſsi	*	*	*I"Tenori	*	*	*I"Alto	*	*	*I"Soprani	*	*	*	*	*	*	*	*	*I"Trombe in C	*	*I"Fagotti	*	*I"Corni in C	*	*I"Clarinetti in C	*	*I"Oboe	*	*I"Flautti	*
*I'timp	*I'cb	*	*I'vc	*	*I'vle	*	*I'vn	*	*I'vn	*	*I'B	*	*	*I'T	*	*	*I'A	*	*	*I'S	*	*	*I'trbn	*	*I'trbn	*	*I'trbn	*	*I'tr	*	*I'fg	*	*I'cor	*	*I'cl	*	*I'ob	*	*I'fl	*
*stria1	*	*	*	*	*	*	*	*	*	*	*	*	*	*	*	*	*	*	*	*	*	*	*	*	*	*	*	*	*	*	*	*	*	*	*	*	*	*	*	*
*clefF4	*clefF4	*	*clefF4	*	*clefC3	*	*clefG2	*	*clefG2	*	*clefF4	*	*	*clefC4	*	*	*clefC3	*	*	*clefG2	*	*	*clefF4	*	*clefC4	*	*clefC3	*	*clefG2	*	*clefF4	*	*clefG2	*	*clefG2	*	*clefG2	*	*clefG2	*
*	*Trd0c0	*	*	*	*	*	*	*	*	*	*	*	*	*	*	*	*	*	*	*	*	*	*	*	*	*	*	*	*	*	*	*	*	*	*	*	*	*	*	*
*k[f#]	*k[f#]	*	*k[f#]	*	*k[f#]	*	*k[f#]	*	*k[f#]	*	*k[f#]	*	*	*k[f#]	*	*	*k[f#]	*	*	*k[f#]	*	*	*k[f#]	*	*k[f#]	*	*k[f#]	*	*k[f#]	*	*k[f#]	*	*k[]	*	*k[f#]	*	*k[f#]	*	*k[f#]	*
*G:	*G:	*	*G:	*	*G:	*	*G:	*	*G:	*	*G:	*	*	*G:	*	*	*G:	*	*	*G:	*	*	*G:	*	*G:	*	*G:	*	*G:	*	*G:	*	*G:	*	*G:	*	*G:	*	*G:	*
*M4/4	*M4/4	*	*M4/4	*	*M4/4	*	*M4/4	*	*M4/4	*	*M4/4	*	*	*M4/4	*	*	*M4/4	*	*	*M4/4	*	*	*M4/4	*	*M4/4	*	*M4/4	*	*M4/4	*	*M4/4	*	*M4/4	*	*M4/4	*	*M4/4	*	*M4/4	*
!!LO:TX:t=P:problem:all\right:global
!	!	!	!	!	!	!	!	!	!	!LO:DY:b	!	!	!	!	!	!	!	!	!	!	!	!	!	!	!	!	!	!	!	!	!	!	!	!	!	!	!	!	!LO:TX:a:i:t=Andante.	!
4ryy	(4E-X^<\	sf	(4E-X^\	.	4e-X\	.	4G/ 4g	.	(4cc#X^\	sf	4r	.	.	4r	.	.	4r	.	.	4r	.	.	4r	.	4r	.	4r	.	4r	.	4r	.	4r	.	4r	.	4r	.	4r	.
=1	=1	=1	=1	=1	=1	=1	=1	=1	=1	=1	=1	=1	=1	=1	=1	=1	=1	=1	=1	=1	=1	=1	=1	=1	=1	=1	=1	=1	=1	=1	=1	=1	=1	=1	=1	=1	=1	=1	=1	=1
!	!	!	!	!	!LO:TUP:a:problem:brak klamry	!	!	!	!LO:TUP:a:problem:brak klamry	!LO:DY:b	!	!	!	!	!	!	!	!	!	!	!	!	!	!	!	!	!	!	!	!	!	!	!	!	!	!	!	!	!LO:TX:a:i:u:t=Agnus Dei.	!
1ryy	4D\)	p	4D\)	.	(6d\	.	4A/ 4f#X	.	(6dd\)	p	1r	.	.	1r	.	.	1r	.	.	1r	.	.	1r	.	1r	.	1r	.	1r	.	1r	.	1r	.	1r	.	1r	.	1r	.
.	.	.	.	.	6en\	.	.	.	6ee\	.	.	.	.	.	.	.	.	.	.	.	.	.	.	.	.	.	.	.	.	.	.	.	.	.	.	.	.	.	.	.
.	4r	.	4r	.	.	.	4r	.	.	.	.	.	.	.	.	.	.	.	.	.	.	.	.	.	.	.	.	.	.	.	.	.	.	.	.	.	.	.	.	.
.	.	.	.	.	6d\	.	.	.	6dd\	.	.	.	.	.	.	.	.	.	.	.	.	.	.	.	.	.	.	.	.	.	.	.	.	.	.	.	.	.	.	.
!	!	!	!	!	!LO:TUP:a:problem:brak klamry	!	!	!	!LO:TUP:a:problem:brak klamry	!	!	!	!	!	!	!	!	!	!	!	!	!	!	!	!	!	!	!	!	!	!	!	!	!	!	!	!	!	!	!
.	2r	.	2r	.	6c/	.	2r	.	6ccn\	.	.	.	.	.	.	.	.	.	.	.	.	.	.	.	.	.	.	.	.	.	.	.	.	.	.	.	.	.	.	.
.	.	.	.	.	6A/	.	.	.	6a\	.	.	.	.	.	.	.	.	.	.	.	.	.	.	.	.	.	.	.	.	.	.	.	.	.	.	.	.	.	.	.
.	.	.	.	.	6d/)	.	.	.	6dd\)	.	.	.	.	.	.	.	.	.	.	.	.	.	.	.	.	.	.	.	.	.	.	.	.	.	.	.	.	.	.	.
=2	=2	=2	=2	=2	=2	=2	=2	=2	=2	=2	=2	=2	=2	=2	=2	=2	=2	=2	=2	=2	=2	=2	=2	=2	=2	=2	=2	=2	=2	=2	=2	=2	=2	=2	=2	=2	=2	=2	=2	=2
*	*	*	*	*	*	*	*	*	*	*	*	*	*	*	*	*	*	*	*	*^	*	*	*	*	*	*	*	*	*	*	*	*	*	*	*	*	*	*	*	*
*	*	*	*	*	*	*	*	*	*2\right	*	*	*	*	*	*	*	*	*	*	*	*2\right	*	*	*	*	*	*	*	*	*	*	*	*	*	*	*	*	*2\right	*	*2\right	*
!	!	!	!	!	!	!	!	!	!	!	!	!	!	!	!	!	!	!	!	!LO:TX:a:t=dolce	!	!	!	!	!	!	!	!	!	!	!	!	!	!	!	!	!	!	!	!	!
!	!	!	!	!	!	!	!	!	!	!	!	!	!	!	!	!	!	!	!	!LO:TX:a:t=1o	!LO:TX:b:t=2o	!	!	!	!	!	!	!	!	!	!	!	!	!	!	!	!	!	!	!	!
1ryy	1r	.	(2GG/	.	(2G/	.	2b/	.	(2dd\	.	1r	.	.	2G/	Dzie-	.	1ryy	.	.	2dd/	2b\	Dzie-	.	1r	.	1r	.	1r	.	1r	.	1r	.	1r	.	1r	.	(2bb\	.	(2ddd\	p
.	.	.	4E\	.	4e\	.	2g/	.	4b\	.	.	.	.	4e\	-ci	.	.	.	.	4b/	4g\	-ci	.	.	.	.	.	.	.	.	.	.	.	.	.	.	.	4gg\)	.	4bb\	.
.	.	.	4E-X\	.	4e-X\	.	.	.	4cc\)	.	.	.	.	4e-X\	nie-	.	.	.	.	4cc/	4g\	nie-	.	.	.	.	.	.	.	.	.	.	.	.	.	.	.	4gg\	.	4ccc\	.
*	*	*	*	*	*	*	*	*	*	*	*	*	*	*	*	*	*	*	*	*v	*v	*	*	*	*	*	*	*	*	*	*	*	*	*	*	*	*	*	*	*	*
=3	=3	=3	=3	=3	=3	=3	=3	=3	=3	=3	=3	=3	=3	=3	=3	=3	=3	=3	=3	=3	=3	=3	=3	=3	=3	=3	=3	=3	=3	=3	=3	=3	=3	=3	=3	=3	=3	=3	=3	=3
.	.	.	(>8qD/)	.	.	.	.	.	.	.	.	.	.	.	.	.	.	.	.	.	.	.	.	.	.	.	.	.	.	.	.	.	.	.	.	.	.	.	.	.
1ryy	1r	.	8d\L	.	(8d/L)	.	(4f#/	.	(4a\	.	1r	.	.	(8d\L	-go-	.	1ryy	.	.	(>4f#/ 4a	-go-	.	1r	.	1r	.	1r	.	1r	.	1r	.	1r	.	1r	.	(4ff#\	.	(4aa\)	.
.	.	.	8c\	.	8c/	.	.	.	.	.	.	.	.	8c\	.	.	.	.	.	.	.	.	.	.	.	.	.	.	.	.	.	.	.	.	.	.	.	.	.	.
.	.	.	8B\	.	8B/	.	8g/L	.	8b\L	.	.	.	.	8B\	.	.	.	.	.	8g/L 8b	.	.	.	.	.	.	.	.	.	.	.	.	.	.	.	.	8gg\L	.	8bb\L	.
.	.	.	8A\J	.	8A/J	.	8a/J	.	8cc\J	.	.	.	.	8A\J	.	.	.	.	.	8a/J) 8cc	.	.	.	.	.	.	.	.	.	.	.	.	.	.	.	.	8aa\J	.	8ccc\J	.
.	.	.	4G\)	.	4G/)	.	4b/)	.	4dd\)	.	.	.	.	4G/)	-dne	.	.	.	.	4b/ 4dd	-dne	.	.	.	.	.	.	.	.	.	.	.	.	.	.	.	4bb\)	.	4ddd\)	.
.	.	.	4G\	.	4g\	.	4b'/	.	4dd'\	.	.	.	.	4G/	tak	.	.	.	.	4b/ 4dd	tak	.	.	.	.	.	.	.	.	.	.	.	.	.	.	.	4bb\	.	4ddd'\	.
!!LO:PB:g=original
=4	=4	=4	=4	=4	=4	=4	=4	=4	=4	=4	=4	=4	=4	=4	=4	=4	=4	=4	=4	=4	=4	=4	=4	=4	=4	=4	=4	=4	=4	=4	=4	=4	=4	=4	=4	=4	=4	=4	=4	=4
*	*	*	*2\right	*	*2\right	*	*2\right	*	*	*	*	*	*	*	*	*	*	*	*	*	*	*	*	*	*	*	*	*	*	*	*	*	*	*	*	*	*	*	*	*
1ryy	1r	.	(2F#^<\	.	(2f#^<\	.	(2cc^<\	.	(2ee^<\	.	1r	.	.	2F#/	wiel-	.	1ryy	.	.	2cc\ 2ee	wiel-	.	1r	.	1r	.	1r	.	1r	.	1r	.	1r	.	1r	.	(2ccc\	.	(2eee\	.
.	.	.	4G\)	.	4g\)	.	4b\)	.	4dd\)	.	.	.	.	4G/	-kiej	.	.	.	.	4b\ 4dd	-kiej	.	.	.	.	.	.	.	.	.	.	.	.	.	.	.	4bb\)	.	4ddd\)	.
.	.	.	4c|\	.	4e\	.	4a|/	.	4cc|\	.	.	.	.	4c\	o-	.	.	.	.	4a/ 4cc	o-	.	.	.	.	.	.	.	.	.	.	.	.	.	.	.	4aa\	.	4ccc\	.
=5	=5	=5	=5	=5	=5	=5	=5	=5	=5	=5	=5	=5	=5	=5	=5	=5	=5	=5	=5	=5	=5	=5	=5	=5	=5	=5	=5	=5	=5	=5	=5	=5	=5	=5	=5	=5	=5	=5	=5	=5
*	*	*	*	*	*	*	*	*	*	*	*	*	*	*2\right	*	*	*	*	*	*	*	*	*	*	*	*	*	*	*	*	*	*	*	*	*	*	*	*	*	*
1ryy	1r	.	(2d\	.	2.d\	.	(4.gS/	.	(4.bS\	.	1r	.	.	2d\	-fia-	.	1ryy	.	.	(>4.gS/ 4.b	-fia-	.	1r	.	1r	.	1r	.	1r	.	1r	.	1r	.	1r	.	(4.ggS\	.	(4.bbS\	.
.	.	.	.	.	.	.	8a/	.	8cc\	.	.	.	.	.	.	.	.	.	.	8a/) 8cc	.	.	.	.	.	.	.	.	.	.	.	.	.	.	.	.	8aa\	.	8ccc\	.
.	.	.	4D\)	.	.	.	4f#/)	.	4a/)	.	.	.	.	4d\	-ry	.	.	.	.	4f#/ 4a	-ry	.	.	.	.	.	.	.	.	.	.	.	.	.	.	.	4ff#\)	.	4aa\)	.
.	.	.	4D'\	.	4d\	.	4f#/	.	4a/	.	.	.	.	4r	.	.	.	.	.	4r	.	.	.	.	.	.	.	.	.	.	.	.	.	.	.	.	4r	.	4r	.
=6	=6	=6	=6	=6	=6	=6	=6	=6	=6	=6	=6	=6	=6	=6	=6	=6	=6	=6	=6	=6	=6	=6	=6	=6	=6	=6	=6	=6	=6	=6	=6	=6	=6	=6	=6	=6	=6	=6	=6	=6
*	*	*	*	*	*	*	*	*	*	*	*	*	*	*	*	*	*	*	*	*	*	*	*	*	*	*	*	*	*	*	*2\right	*	*	*	*	*	*	*	*	*
1ryy	1r	.	4E'^<\	.	8r	.	8r	.	8r	.	1r	.	.	2e\	z_Twe-	.	1ryy	.	.	2e^>/ 2g	z_Twe-	.	1r	.	1r	.	1r	.	1r	.	2E^<\ 2B	p	1r	.	2e^>/ 2g	p	1r	.	1r	.
.	.	.	.	.	(8B'/L	.	(8e'/L	.	(>8g'>^/L	.	.	.	.	.	.	.	.	.	.	.	.	.	.	.	.	.	.	.	.	.	.	.	.	.	.	.	.	.	.	.
.	.	.	4r	.	8B'/	.	8e'/	.	8g'>/	.	.	.	.	.	.	.	.	.	.	.	.	.	.	.	.	.	.	.	.	.	.	.	.	.	.	.	.	.	.	.
.	.	.	.	.	8B'/J)	.	8e'/J)	.	8g'>/J)	.	.	.	.	.	.	.	.	.	.	.	.	.	.	.	.	.	.	.	.	.	.	.	.	.	.	.	.	.	.	.
.	.	.	4D^<\	.	8r	.	8r	.	8r	.	.	.	.	2d\	-go	.	.	.	.	2f#^>/ 2a	-go	.	.	.	.	.	.	.	.	.	2D^<\ 2d	.	.	.	2f#^>/ 2a	.	.	.	.	.
.	.	.	.	.	(8d'\L	.	(8f#'/L	.	(>8a'>^/L	.	.	.	.	.	.	.	.	.	.	.	.	.	.	.	.	.	.	.	.	.	.	.	.	.	.	.	.	.	.	.
.	.	.	4r	.	8d'\	.	8f#'/	.	8a'>/	.	.	.	.	.	.	.	.	.	.	.	.	.	.	.	.	.	.	.	.	.	.	.	.	.	.	.	.	.	.	.
.	.	.	.	.	8d'\J)	.	8f#'/J)	.	8a'>/J)	.	.	.	.	.	.	.	.	.	.	.	.	.	.	.	.	.	.	.	.	.	.	.	.	.	.	.	.	.	.	.
=7	=7	=7	=7	=7	=7	=7	=7	=7	=7	=7	=7	=7	=7	=7	=7	=7	=7	=7	=7	=7	=7	=7	=7	=7	=7	=7	=7	=7	=7	=7	=7	=7	=7	=7	=7	=7	=7	=7	=7	=7
*	*	*	*	*	*	*	*	*	*	*	*	*	*	*	*	*	*	*	*	*	*	*	*	*	*	*	*	*	*	*	*^	*	*	*	*	*	*	*	*	*
1ryy	1r	.	4.G\	.	8r	.	8r	.	8r	.	1r	.	.	4.G/	sto-	.	1ryy	.	.	4.g/ 4.b	sto-	.	1r	.	1r	.	1r	.	1r	.	4.G/	4.G\	.	1r	.	4.g/ 4.b	.	1r	.	1r	.
.	.	.	.	.	8d\L	.	8g/L	.	8b\L	.	.	.	.	.	.	.	.	.	.	.	.	.	.	.	.	.	.	.	.	.	.	.	.	.	.	.	.	.	.	.	.
.	.	.	.	.	8d\	.	8g/	.	8b\	.	.	.	.	.	.	.	.	.	.	.	.	.	.	.	.	.	.	.	.	.	.	.	.	.	.	.	.	.	.	.	.
.	.	.	8BB/	.	8d\J	.	8g/J	.	8dd\J	.	.	.	.	8B\	-łu	.	.	.	.	8g/ 8dd	-łu	.	.	.	.	.	.	.	.	.	8BB\ 8B	8ryy	.	.	.	8g/ 8dd	.	.	.	.	.
.	.	.	8E\	.	8r	.	8r	.	8r	.	.	.	.	4e\	da-	.	.	.	.	4e/ 4g	da-	.	.	.	.	.	.	.	.	.	4E\ 4B	4ryy	.	.	.	4e/ 4g	.	.	.	.	.
.	.	.	8r	.	8B/	.	8e/	.	8g/	.	.	.	.	.	.	.	.	.	.	.	.	.	.	.	.	.	.	.	.	.	.	.	.	.	.	.	.	.	.	.	.
.	.	.	8C#X/	.	8r	.	8r	.	8r	.	.	.	.	4c#X\	-ry	.	.	.	.	4e/ 4a	-ry	.	.	.	.	.	.	.	.	.	4C#X\ 4A	4ryy	.	.	.	4e/ 4a	.	.	.	.	.
.	.	.	8r	.	8A/	.	8e/	.	8a/	.	.	.	.	.	.	.	.	.	.	.	.	.	.	.	.	.	.	.	.	.	.	.	.	.	.	.	.	.	.	.	.
*	*	*	*	*	*	*	*	*	*	*	*	*	*	*	*	*	*	*	*	*	*	*	*	*	*	*	*	*	*	*	*v	*v	*	*	*	*	*	*	*	*	*
=8	=8	=8	=8	=8	=8	=8	=8	=8	=8	=8	=8	=8	=8	=8	=8	=8	=8	=8	=8	=8	=8	=8	=8	=8	=8	=8	=8	=8	=8	=8	=8	=8	=8	=8	=8	=8	=8	=8	=8	=8
1ryy	1r	.	4D\	.	8r	.	8r	.	8r	.	1r	.	.	2d\	bio-	.	1ryy	.	.	2g/ 2b	bio-	.	1r	.	1r	.	1r	.	1r	.	2D\ 2d	.	1r	.	2g/ 2b	.	1r	.	1r	.
*	*	*	*	*	*tremolo	*	*tremolo	*	*tremolo	*	*	*	*	*	*	*	*	*	*	*	*	*	*	*	*	*	*	*	*	*	*	*	*	*	*	*	*	*	*	*
.	.	.	.	.	8d\L	.	8g/L	.	8b/L	.	.	.	.	.	.	.	.	.	.	.	.	.	.	.	.	.	.	.	.	.	.	.	.	.	.	.	.	.	.	.
.	.	.	4r	.	8d\	.	8g/	.	8b/	.	.	.	.	.	.	.	.	.	.	.	.	.	.	.	.	.	.	.	.	.	.	.	.	.	.	.	.	.	.	.
.	.	.	.	.	8d\J	.	8g/J	.	8b/J	.	.	.	.	.	.	.	.	.	.	.	.	.	.	.	.	.	.	.	.	.	.	.	.	.	.	.	.	.	.	.
.	.	.	4D\	.	8r	.	8r	.	8r	.	.	.	.	2d\	-rą	.	.	.	.	2f#/ 2a	-rą	.	.	.	.	.	.	.	.	.	2D\ 2d	.	.	.	2f#/ 2a	.	.	.	.	.
.	.	.	.	.	8d\L	.	8f#/L	.	8a/L	.	.	.	.	.	.	.	.	.	.	.	.	.	.	.	.	.	.	.	.	.	.	.	.	.	.	.	.	.	.	.
.	.	.	4r	.	8d\	.	8f#/	.	8a/	.	.	.	.	.	.	.	.	.	.	.	.	.	.	.	.	.	.	.	.	.	.	.	.	.	.	.	.	.	.	.
.	.	.	.	.	8d\J	.	8f#/J	.	8a/J	.	.	.	.	.	.	.	.	.	.	.	.	.	.	.	.	.	.	.	.	.	.	.	.	.	.	.	.	.	.	.
!!LO:PB:g=original
=9	=9	=9	=9	=9	=9	=9	=9	=9	=9	=9	=9	=9	=9	=9	=9	=9	=9	=9	=9	=9	=9	=9	=9	=9	=9	=9	=9	=9	=9	=9	=9	=9	=9	=9	=9	=9	=9	=9	=9	=9
*	*	*	*	*	*	*	*	*	*	*	*	*	*	*	*	*	*	*	*	*	*	*	*	*	*	*	*	*	*^	*	*	*	*	*	*^	*	*	*	*	*
*	*	*	*	*	*	*	*	*	*	*	*2\right	*	*	*	*	*	*	*	*	*	*	*	*	*	*	*	*	*	*	*	*	*	*	*	*	*	*	*	*	*	*	*
*	*	*	*	*	*	*	*	*	*	*	*	*	*	*	*	*	*clefG2	*	*	*	*	*	*	*	*	*	*	*	*	*	*	*	*	*	*	*	*	*	*	*	*	*
!	!	!	!	!	!	!	!	!	!	!	!	!	!LO:DY:a	!	!	!LO:DY:a	!	!	!LO:DY:a	!	!	!LO:DY:a	!	!	!	!	!	!	!	!	!	!	!	!	!	!	!	!	!	!	!	!
!	!	!	!	!	!	!	!	!	!	!	!	!	!	!	!	!	!LO:TX:t=P:problem:brak zmiany klucza na G2	!	!	!	!	!	!	!	!	!	!	!	!	!	!	!	!	!	!	!	!	!	!	!	!	!
1ryy	4D#X\	sf	1ryy	.	8r	.	8r	.	8r	.	2D#X\	Rę-	f	2B\	.	f	2f#/	.	f	2b\	Rę-	f	4D#X\	f	4B\	.	4f#\	sf	4b/	4b\	sf	1D#X 1B	.	1b 1dd#X	sf	2b/	1f#	sf	1ff#	.	2bb\	sf
!	!	!	!	!	!	!	!	!	!	!LO:DY:b	!	!	!	!	!	!	!	!	!	!	!	!	!	!	!	!	!	!	!	!	!	!	!	!	!	!	!	!	!	!	!	!
.	.	.	.	.	8B/L	sf	8f#/L	sf	8b/L	sf	.	.	.	.	.	.	.	.	.	.	.	.	.	.	.	.	.	.	.	.	.	.	.	.	.	.	.	.	.	.	.	.
.	4r	.	.	.	8B/	.	8f#/	.	8b/	.	.	.	.	.	.	.	.	.	.	.	.	.	4r	.	4r	.	4r	.	4r	4ryy	.	.	.	.	.	.	.	.	.	.	.	.
.	.	.	.	.	8B/J	.	8f#/J	.	8b/J	.	.	.	.	.	.	.	.	.	.	.	.	.	.	.	.	.	.	.	.	.	.	.	.	.	.	.	.	.	.	.	.	.
*	*	*	*	*	*Xtremolo	*	*Xtremolo	*	*Xtremolo	*	*	*	*	*	*	*	*	*	*	*	*	*	*	*	*	*	*	*	*	*	*	*	*	*	*	*	*	*	*	*	*	*
.	8D#\	.	.	.	8r	.	8r	.	8r	.	4D#\	-ce	.	4B\	.	.	4f#/	.	.	4ff#\	-ce	.	2r	.	2r	.	2r	.	2r	2ryy	.	.	.	.	.	(4ff#/	.	.	.	.	4fff#\	.
.	8r	.	.	.	8B/	.	8f#/	.	8b/	.	.	.	.	.	.	.	.	.	.	.	.	.	.	.	.	.	.	.	.	.	.	.	.	.	.	.	.	.	.	.	.	.
.	8D#\	.	.	.	8r	.	8r	.	8r	.	4D#\	do	.	4B\	.	.	4f#/	.	.	(>4a/	do	.	.	.	.	.	.	.	.	.	.	.	.	.	.	4a/	.	.	.	.	(4aa\	.
.	8r	.	.	.	8B/	.	8f#/	.	8a/	.	.	.	.	.	.	.	.	.	.	.	.	.	.	.	.	.	.	.	.	.	.	.	.	.	.	.	.	.	.	.	.	.
*	*	*	*	*	*	*	*	*	*	*	*	*	*	*	*	*	*	*	*	*	*	*	*	*	*	*	*	*	*v	*v	*	*	*	*	*	*	*	*	*	*	*	*
=10	=10	=10	=10	=10	=10	=10	=10	=10	=10	=10	=10	=10	=10	=10	=10	=10	=10	=10	=10	=10	=10	=10	=10	=10	=10	=10	=10	=10	=10	=10	=10	=10	=10	=10	=10	=10	=10	=10	=10	=10	=10
*	*	*	*	*	*	*	*	*	*	*	*	*	*	*	*	*	*	*	*	*	*	*	*	*	*	*	*	*	*	*	*	*	*	*	*	*2\right	*	*	*	*	*
1ryy	4E\	.	1ryy	.	8r	.	8r	.	8r	.	2E\	Oj-	.	2B\	.	.	2e/	.	.	4a/	Oj-	.	1r	.	1r	.	1r	.	1r	.	2.E\ 2.B	.	1b 1ee	.	4a/	2.e\	.	2.ee\	.	4aa\	.
*	*	*	*	*	*tremolo	*	*tremolo	*	*tremolo	*	*	*	*	*	*	*	*	*	*	*	*	*	*	*	*	*	*	*	*	*	*	*	*	*	*	*	*	*	*	*	*
.	.	.	.	.	8B/L	.	8e/L	.	8g/L	.	.	.	.	.	.	.	.	.	.	.	.	.	.	.	.	.	.	.	.	.	.	.	.	.	.	.	.	.	.	.	.
.	4r	.	.	.	8B/	.	8e/	.	8g/	.	.	.	.	.	.	.	.	.	.	8g/L	.	.	.	.	.	.	.	.	.	.	.	.	.	.	8g/L	.	.	.	.	8gg\L	.
.	.	.	.	.	8B/J	.	8e/J	.	8g/J	.	.	.	.	.	.	.	.	.	.	8f#/J	.	.	.	.	.	.	.	.	.	.	.	.	.	.	8f#/J	.	.	.	.	8ff#\J	.
*	*	*	*	*	*Xtremolo	*	*Xtremolo	*	*Xtremolo	*	*	*	*	*	*	*	*	*	*	*	*	*	*	*	*	*	*	*	*	*	*	*	*	*	*	*	*	*	*	*	*
.	8E\	.	.	.	8r	.	8r	.	8r	.	4E\	-ca	.	4B\	.	.	4e/	.	.	4g/)	-ca	.	.	.	.	.	.	.	.	.	.	.	.	.	4g/)	.	.	.	.	4gg\	.
.	8r	.	.	.	8B/	.	8e/	.	8g/	.	.	.	.	.	.	.	.	.	.	.	.	.	.	.	.	.	.	.	.	.	.	.	.	.	.	.	.	.	.	.	.
.	8E\	.	.	.	8r	.	8r	.	8r	.	4E\	po-	.	4G/	.	.	4e/	.	.	4b/	po-	.	.	.	.	.	.	.	.	.	4E\ 4B	.	.	.	4b/	4g\	.	4ee\	.	4bb\)	.
.	8r	.	.	.	8B/	.	8e/	.	8g/	.	.	.	.	.	.	.	.	.	.	.	.	.	.	.	.	.	.	f	.	.	.	.	.	.	.	.	.	.	.	.	.
=11	=11	=11	=11	=11	=11	=11	=11	=11	=11	=11	=11	=11	=11	=11	=11	=11	=11	=11	=11	=11	=11	=11	=11	=11	=11	=11	=11	=11	=11	=11	=11	=11	=11	=11	=11	=11	=11	=11	=11	=11	=11
*	*	*	*	*	*	*	*	*	*	*	*	*	*	*	*	*	*	*	*	*	*	*	*	*	*	*	*	*	*^	*	*	*	*^	*	*	*	*	*	*	*	*
*	*	*	*	*	*	*	*	*	*	*	*	*	*	*	*	*	*	*	*	*	*	*	*2\right	*	*	*	*2\right	*	*	*2\right	*	*	*	*	*2\right	*	*	*	*	*	*	*	*
!	!	!	!	!	!	!	!	!	!	!LO:DY:b	!	!	!	!	!	!	!	!	!	!	!	!	!	!	!	!	!	!	!	!	!	!	!	!	!	!	!	!	!	!	!LO:DY:a	!	!
1ryy	4AA/	f	1ryy	.	8r	f	8r	f	8r	f	2AA/	-dno-	.	2A\	.	.	2e/	.	.	2cc\	-dno-	.	2AA\ 2A	.	2.A/	.	(2c\	.	2cc/	2a\	f	2AA\ 2A	f	2ee/	2.cc\	f	2cc/	2.a\	f	2ee\	f	2ccc\	.
*	*	*	*	*	*tremolo	*	*tremolo	*	*tremolo	*	*	*	*	*	*	*	*	*	*	*	*	*	*	*	*	*	*	*	*	*	*	*	*	*	*	*	*	*	*	*	*	*	*
.	.	.	.	.	8A/L 8e	.	8a/L	.	8cc\L	.	.	.	.	.	.	.	.	.	.	.	.	.	.	.	.	.	.	.	.	.	.	.	.	.	.	.	.	.	.	.	.	.	.
.	4r	.	.	.	8A/ 8e	.	8a/	.	8cc\	.	.	.	.	.	.	.	.	.	.	.	.	.	.	.	.	.	.	.	.	.	.	.	.	.	.	.	.	.	.	.	.	.	.
.	.	.	.	.	8A/J 8e	.	8a/J	.	8cc\J	.	.	.	.	.	.	.	.	.	.	.	.	.	.	.	.	.	.	.	.	.	.	.	.	.	.	.	.	.	.	.	.	.	.
*	*	*	*	*	*Xtremolo	*	*Xtremolo	*	*Xtremolo	*	*	*	*	*	*	*	*	*	*	*	*	*	*	*	*	*	*	*	*	*	*	*	*	*	*	*	*	*	*	*	*	*	*
.	8D/	.	.	.	8r	.	8r	.	8r	.	4D\	-szą	.	4A\	.	.	4f#/	.	.	4a\	-szą	.	4DD/ 4D	.	.	.	4A/)	.	4a/	4f#\	.	4DD/ 4D	.	4dd/	.	.	4a/	.	.	4ff#\	.	4aa\	.
.	8r	.	.	.	8d\	.	8f#/	.	8a/	.	.	.	.	.	.	.	.	.	.	.	.	.	.	.	.	.	.	.	.	.	.	.	.	.	.	.	.	.	.	.	.	.	.
.	8F#\	.	.	.	8r	.	8r	.	8r	.	4F#\	po	.	4A\	.	.	4d/	.	.	4dd\	po	.	4FF#/ 4F#	.	4A/	.	4d\	.	4dd/	4d\	.	4FF#/ 4F#	.	4dd/	4cc\	.	4dd/	4a\	.	4dd\	.	4ddd\	.
.	8r	.	.	.	8d\	.	8a/	.	8dd\	.	.	.	.	.	.	.	.	.	.	.	.	.	.	.	.	.	.	.	.	.	.	.	.	.	.	.	.	.	.	.	.	.	.
=12	=12	=12	=12	=12	=12	=12	=12	=12	=12	=12	=12	=12	=12	=12	=12	=12	=12	=12	=12	=12	=12	=12	=12	=12	=12	=12	=12	=12	=12	=12	=12	=12	=12	=12	=12	=12	=12	=12	=12	=12	=12	=12	=12
1ryy	(2GG^/	.	1ryy	.	8r	.	8r	.	8r	.	2G^<\	da-	.	(4.c#X\	.	.	(>4.e/	.	.	(4.a#X/	da-	.	2GG^<\ 2G	.	(4.A#X^</	.	(4.e^<\	.	(4.a#X^</	(2g\	.	2.GG/ 2.G	.	4.ee/	4.cc#X\	.	(4.cc#X/	4.a\	.	(4.ee\	.	(4.aa#X\	>
.	.	.	.	.	8G'>^/L 8e	.	8c#X'>/L	.	8a#X'^/L	.	.	.	.	.	.	.	.	.	.	.	.	.	.	.	.	.	.	.	.	.	.	.	.	.	.	.	.	.	.	.	.	.	.
.	.	.	.	.	(8G/ 8e	.	(>8c#/	.	(<8a#/	.	.	.	.	.	.	.	.	.	.	.	.	.	.	.	.	.	.	.	.	.	.	.	.	.	.	.	.	.	.	.	.	.	.
.	.	.	.	.	8G/J 8d	.	8d/J	.	8b/J	.	.	.	.	8d\)	.	.	8d/)	.	.	8b/)	.	.	.	.	8B/)	.	8d\)	.	8b/	.	.	.	.	8dd/	8dd\	.	8dd/	8b\	.	8dd\	.	8bb\	]
.	8G\)	.	.	.	8G/) 8d	.	8d/)	.	8b/)	.	4G\	-ry	.	4d\	.	.	4d/	.	.	4b/	-ry	.	4GG\ 4G	.	4B/	.	4d\	.	4b/)	4g\)	.	.	.	4dd/	4dd\	.	4dd/)	4b\	.	4dd\)	.	4bb\)	.
.	8r	.	.	.	8r	.	8r	.	8g|</L	.	.	.	.	.	.	.	.	.	.	.	.	.	.	.	.	.	.	.	.	.	.	.	.	.	.	.	.	.	.	.	.	.	.
.	4r	.	.	.	4r	.	4r	.	(8b/	.	4r	.	.	4r	.	.	4r	.	.	4r	.	.	4r	.	4r	.	4r	.	4r	4ryy	.	4r	.	4r	4ryy	.	4r	4ryy	.	4r	.	4r	.
.	.	.	.	.	.	.	.	.	8cc/J)	.	.	.	.	.	.	.	.	.	.	.	.	.	.	.	.	.	.	.	.	.	.	.	.	.	.	.	.	.	.	.	.	.	.
*	*	*	*	*	*	*	*	*	*	*	*	*	*	*	*	*	*	*	*	*	*	*	*	*	*	*	*	*	*	*	*	*	*	*v	*v	*	*	*	*	*	*	*	*
*	*	*	*	*	*	*	*	*	*	*	*	*	*	*	*	*	*	*	*	*	*	*	*	*	*	*	*	*	*v	*v	*	*	*	*	*	*v	*v	*	*	*	*	*
=13	=13	=13	=13	=13	=13	=13	=13	=13	=13	=13	=13	=13	=13	=13	=13	=13	=13	=13	=13	=13	=13	=13	=13	=13	=13	=13	=13	=13	=13	=13	=13	=13	=13	=13	=13	=13	=13	=13	=13	=13
!	!	!	!	!	!	!	!	!	!	!	!	!	!	!	!	!	!	!	!	!LO:TX:a:t=Solo	!	!	!	!	!	!	!	!	!	!	!	!	!	!	!	!	!	!	!	!
1ryy	4BB/	p	1ryy	.	4d\	.	4g/	.	4dd\	p	2B\	I	.	2d\	.	.	2g/	.	.	2dd\	I	.	1r	.	1r	.	1r	.	1r	.	1r	.	1r	.	1r	.	1r	.	1r	.
.	4r	.	.	.	4d\	.	4g/	.	4dd\	.	.	.	.	.	.	.	.	.	.	.	.	.	.	.	.	.	.	.	.	.	.	.	.	.	.	.	.	.	.	.
.	4B\	.	.	.	4r	.	4r	.	4r	.	2B\	z_u-	.	2d\	.	.	2g/	.	.	2g/	z_u-	.	.	.	.	.	.	.	.	.	.	.	.	.	.	.	.	.	.	.
.	4r	.	.	.	4d\	.	4g/	.	4g/	.	.	.	.	.	.	.	.	.	.	.	.	.	.	.	.	.	.	.	.	.	.	.	.	.	.	.	.	.	.	.
!!LO:PB:g=original
=14	=14	=14	=14	=14	=14	=14	=14	=14	=14	=14	=14	=14	=14	=14	=14	=14	=14	=14	=14	=14	=14	=14	=14	=14	=14	=14	=14	=14	=14	=14	=14	=14	=14	=14	=14	=14	=14	=14	=14	=14
*	*	*	*	*	*	*	*	*	*	*	*	*	*	*	*	*	*clefG2	*	*	*	*	*	*	*	*	*	*	*	*	*	*	*	*	*	*	*	*	*	*	*
1ryy	(2A\	.	1ryy	.	(4e\	.	(4e/	.	(2cc\	.	2A\	-fno-	.	(4c\	.	.	(4e/	.	.	2cc\	-fno-	.	1r	.	1r	.	1r	.	1r	.	1r	.	1r	.	1r	.	1r	.	1r	.
.	.	.	.	.	4d\)	.	4f#/)	.	.	.	.	.	.	4d\)	.	.	4f#/)	.	.	.	.	.	.	.	.	.	.	.	.	.	.	.	.	.	.	.	.	.	.	.
.	2G\)	.	.	.	2d\	.	2g/	.	4b\	.	2G\	-ścią	.	2d\	.	.	2g/	.	.	2b\	-ścią	.	.	.	.	.	.	.	.	.	.	.	.	.	.	.	.	.	.	.
.	.	.	.	.	.	.	.	.	4b\)	.	.	.	.	.	.	.	.	.	.	.	.	.	.	.	.	.	.	.	.	.	.	.	.	.	.	.	.	.	.	.
=15	=15	=15	=15	=15	=15	=15	=15	=15	=15	=15	=15	=15	=15	=15	=15	=15	=15	=15	=15	=15	=15	=15	=15	=15	=15	=15	=15	=15	=15	=15	=15	=15	=15	=15	=15	=15	=15	=15	=15	=15
1ryy	2.D\	.	1ryy	.	2.d\	.	(4g/	.	2.a/	.	2.D\	I	.	2.d\	.	.	(4g/	.	.	2.a/	I	.	1r	.	1r	.	1r	.	1r	.	1r	.	1r	.	1r	.	1r	.	1r	.
.	.	.	.	.	.	.	8f#/L	.	.	.	.	.	.	.	.	.	8f#/L	.	.	.	.	.	.	.	.	.	.	.	.	.	.	.	.	.	.	.	.	.	.	.
.	.	.	.	.	.	.	8e/J	.	.	.	.	.	.	.	.	.	8e/J	.	.	.	.	.	.	.	.	.	.	.	.	.	.	.	.	.	.	.	.	.	.	.
.	.	.	.	.	.	.	4f#/)	.	.	.	.	.	.	.	.	.	4f#/)	.	.	.	.	.	.	.	.	.	.	.	.	.	.	.	.	.	.	.	.	.	.	.
.	4D\	.	.	.	4d\	.	4f#'/	.	4dd\	.	4D\	z_po-	.	4d\	.	.	4f#/	.	.	4dd\	z_po-	.	.	.	.	.	.	.	.	.	.	.	.	.	.	.	.	.	.	.
=16	=16	=16	=16	=16	=16	=16	=16	=16	=16	=16	=16	=16	=16	=16	=16	=16	=16	=16	=16	=16	=16	=16	=16	=16	=16	=16	=16	=16	=16	=16	=16	=16	=16	=16	=16	=16	=16	=16	=16	=16
1ryy	(4E\	.	1ryy	.	(4c\	.	(4g/	.	(2cc\	.	(4E\	-ko-	.	(4c\	.	.	(4g/	.	.	2cc^\	-ko-	.	1r	.	1r	.	1r	.	1r	.	1r	.	1r	.	1r	.	1r	.	1r	.
.	4F#\	.	.	.	4d\)	.	4a/)	.	.	.	4F#\)	.	.	4d\)	.	.	4a/)	.	.	.	.	.	.	.	.	.	.	.	.	.	.	.	.	.	.	.	.	.	.	.
.	2G\)	.	.	.	2d\	.	2g/	.	2b\)	.	2G\	-rą	.	2d\	.	.	2g/	.	.	2b\	-rą	.	.	.	.	.	.	.	.	.	.	.	.	.	.	.	.	.	.	.
=17	=17	=17	=17	=17	=17	=17	=17	=17	=17	=17	=17	=17	=17	=17	=17	=17	=17	=17	=17	=17	=17	=17	=17	=17	=17	=17	=17	=17	=17	=17	=17	=17	=17	=17	=17	=17	=17	=17	=17	=17
*	*	*	*	*	*	*	*	*	*	*	*	*	*	*	*	*	*	*	*	*	*	*	*	*	*	*	*	*	*	*	*	*	*^	*	*^	*	*	*	*	*
!	!	!	!	!	!	!	!	!	!	!LO:HP:b	!	!	!LO:HP:b	!	!	!	!	!	!	!LO:TX:a:t=tutti	!	!LO:DY:a	!	!	!	!	!	!	!	!	!	!	!	!	!	!	!	!LO:HP:a	!	!	!	!LO:HP:a
1ryy	4BB/	<	1ryy	.	4d\	.	4g/	.	4dd\	<	2B\	I	<	2d\	.	.	2g/	.	.	2dd\	I	<	1r	.	1r	.	1r	.	1r	.	1BB 1B	<[	2dd/	1g	<	2ee/	[>1g	<	[1gg	.	2ddd\	<
.	4r	.	.	.	4d\	.	4g/	.	4dd\	.	.	.	.	.	.	.	.	.	.	.	.	.	.	.	.	.	.	.	.	.	.	.	.	.	.	.	.	.	.	.	.	.
.	4B\	.	.	.	4r	.	4r	.	4r	.	2B\	z u-	[[	2d#X\	.	.	2g/	.	.	2dd#X\	z u-	[[	.	.	.	.	.	.	.	.	.	.	(2dd#X/	.	.	2dd#X/	.	.	.	.	2ddd#X\	.
.	4r	[[	.	.	4d#X\	.	4g/	.	4dd#X\	[[	.	.	.	.	.	.	.	.	.	.	.	.	.	.	.	.	.	.	.	.	.	.	.	.	.	.	.	.	.	.	.	[
=18	=18	=18	=18	=18	=18	=18	=18	=18	=18	=18	=18	=18	=18	=18	=18	=18	=18	=18	=18	=18	=18	=18	=18	=18	=18	=18	=18	=18	=18	=18	=18	=18	=18	=18	=18	=18	=18	=18	=18	=18	=18	=18
!	!	!	!	!	!	!	!	!	!	!LO:DY:b	!	!	!LO:DY:a	!	!	!LO:DY:a	!	!	!LO:DY:a	!	!	!LO:DY:a	!	!	!	!	!	!	!	!	!	!LO:DY:a	!	!	!LO:DY:a	!	!	!LO:DY:a	!	!	!	!LO:DY:a
2r	8c\	f	1ryy	.	4r	.	4r	.	4r	f	(4..c\	-fno-	f	2e\	.	f	(4..g/	.	f	(4..ee\	-fno-	f	2r	.	2r	.	2r	.	2r	.	4..C\ 4..c	f	4..g/) 4..ee	4..ryy	[ f	(4..ee/	4..g\]	[ f	(4..gg\]	.	(4..eee\	f
.	8r	.	.	.	.	.	.	.	.	.	.	.	.	.	.	.	.	.	.	.	.	.	.	.	.	.	.	.	.	.	.	.	.	.	.	.	.	.	.	.	.	.
.	8C/	.	.	.	8c\ 8e	.	8g/	.	8cc\ 8ee	.	.	.	.	.	.	.	.	.	.	.	.	.	.	.	.	.	.	.	.	.	.	.	.	.	.	.	.	.	.	.	.	.
.	8r	.	.	.	8r	.	8r	.	8r	.	.	.	.	.	.	.	.	.	.	.	.	.	.	.	.	.	.	.	.	.	.	.	.	.	.	.	.	.	.	.	.	.
.	.	.	.	.	.	.	.	.	.	.	16c#X\)	.	.	.	.	.	16b-X/)	.	.	16gg\	.	.	.	.	.	.	.	.	.	.	16C\ 16c#X	.	16g/ 16ee	16ryy	.	16gg/)	16b-X\	.	16bb-X\)	.	16ggg\)	.
!LO:SIC:s=8GG\	!	!	!	!	!	!	!	!	!	!	!	!	!	!	!	!	!	!	!	!	!	!	!	!LO:DY:a	!	!	!	!	!	!	!	!	!	!	!	!	!	!	!	!	!	!
8Re\	8C#X/	.	.	.	8c#X\ 8e	.	8g\ 8ee	.	8b-X\ 8gg	.	8c#\	-ścią	.	8e\	.	.	8b-/	.	.	8gg\)	-ścią	.	8C#X/	f	8B-X\	.	8e\	f	8g/ 8ee	f	8C\ 8c#	.	8g/ 8ee	8ryy	.	8gg/	4b-\	.	8bb-\	.	8ggg\	.
8r;	8r;	.	.	.	8r;	.	8r;	.	8r;	.	8r;	.	.	8r;	.	.	8r;	.	.	8r;	.	.	8r;	.	8r;	.	8r;	.	8r;	.	8r;	.	8r;	8ryy	.	8r;	.	.	8r;	.	8r;	.
!	!	!	!	!	!	!LO:DY:a	!	!LO:DY:a	!	!LO:DY:a	!	!	!LO:DY:a	!	!	!LO:DY:a	!	!	!LO:DY:a	!	!	!LO:DY:a	!	!	!	!	!	!	!	!	!	!	!	!	!	!	!	!	!	!	!	!LO:DY:a
!	!	!	!	!	!	!	!	!	!	!	!	!	!	!	!	!	!	!	!	!	!	!	!	!	!	!	!	!	!	!	!	!	!	!LO:SIC:v:s=4cc#	!	!	!	!	!	!	!	!
4r	4C#/	p	.	.	4c#X\	p	4e/	p	8.g/L	p	8.C#X/	i	p	8.e\	.	p	8.e/	.	p	8.g/	i	p	4r	.	4r	.	4r	.	4r	.	4r	.	4ee/	4cc\	p	8.g/L	4e\	p	4r	.	8.gg\L	p
.	.	.	.	.	.	.	.	.	16a/Jk	.	16C#/	z_po-	.	16e\	.	.	16e/	.	.	16a/	z_po-	.	.	.	.	.	.	.	.	.	.	.	.	.	.	16a/Jk	.	.	.	.	16aa\Jk	.
!!LO:PB:g=original
=19	=19	=19	=19	=19	=19	=19	=19	=19	=19	=19	=19	=19	=19	=19	=19	=19	=19	=19	=19	=19	=19	=19	=19	=19	=19	=19	=19	=19	=19	=19	=19	=19	=19	=19	=19	=19	=19	=19	=19	=19	=19	=19
1ryy	4D\	.	1ryy	.	8d\	.	8g/	.	8b/	.	(2..D\	-ko-	.	(2d\	.	.	(>2g/	.	.	(>2b/	-ko-	.	1r	.	1r	.	1r	.	1r	.	2r	.	([2dd/	2dd\	.	(2b/	2g\	.	1r	.	(2bb\	.
.	.	.	.	.	8r	.	8r	.	8r	.	.	.	.	.	.	.	.	.	.	.	.	.	.	.	.	.	.	.	.	.	.	.	.	.	.	.	.	.	.	.	.	.
.	4r	.	.	.	4d\	.	4g/	.	4b/	.	.	.	.	.	.	.	.	.	.	.	.	.	.	.	.	.	.	.	.	.	.	.	.	.	.	.	.	.	.	.	.	.
.	.	.	.	.	.	.	.	.	.	.	.	.	.	.	.	.	.	.	.	(8qb/	.	.	.	.	.	.	.	.	.	.	.	.	.	.	.	8qb/	.	.	.	.	(8qbb/	.
.	4D\	.	.	.	4r	.	4r	.	4r	.	.	.	.	4.c\	.	.	4.f#/	.	.	4.a/)	.	.	.	.	.	.	.	.	.	.	(4.D\	p	2dd/]	4.cc\	.	4.a/	4.f#\	.	.	.	4.aa\)	.
.	4r	.	.	.	8c\ 8d	.	8f#/	.	8a/	.	.	.	.	.	.	.	.	.	.	.	.	.	.	.	.	.	.	.	.	.	.	.	.	.	.	.	.	.	.	.	.	.
.	.	.	.	.	8r	.	8r	.	8r	.	8G\)	.	.	8B\	.	.	8g/)	.	.	8g/	.	.	.	.	.	.	.	.	.	.	8G\)	.	.	8b\	.	8g/	8g\	.	.	.	8gg\	.
=20	=20	=20	=20	=20	=20	=20	=20	=20	=20	=20	=20	=20	=20	=20	=20	=20	=20	=20	=20	=20	=20	=20	=20	=20	=20	=20	=20	=20	=20	=20	=20	=20	=20	=20	=20	=20	=20	=20	=20	=20	=20	=20
1ryy	4G\	.	1ryy	.	(>4B/ 4d	.	4g/	.	4g/	.	4G\	-rą	.	4B\)	.	.	4g/	.	.	4g/)	-rą	.	1r	.	1r	.	1r	.	1r	.	4G\	.	4dd/)	4b\	.	4g/)	4g\	.	1r	.	4gg\)	.
.	(>4GG/	.	.	.	4G/	.	4r	.	4r	.	4r	.	.	4r	.	.	4r	.	.	4r	.	.	.	.	.	.	.	.	.	.	4r	.	4r	4ryy	.	4r	4ryy	.	.	.	4r	.
.	4BB/	.	.	.	4B/	.	2r	.	2r	.	2r	.	.	2r	.	.	2r	.	.	2r	.	.	.	.	.	.	.	.	.	.	2r	.	2r	2ryy	.	2r	2ryy	.	.	.	2r	.
.	4E/)	.	.	.	4e/)	.	.	.	.	.	.	.	.	.	.	.	.	.	.	.	.	.	.	.	.	.	.	.	.	.	.	.	.	.	.	.	.	.	.	.	.	.
*	*	*	*	*	*	*	*	*	*	*	*	*	*	*	*	*	*	*	*	*	*	*	*	*	*	*	*	*	*	*	*	*	*v	*v	*	*	*	*	*	*	*	*
*	*	*	*	*	*	*	*	*	*	*	*	*	*	*	*	*	*	*	*	*	*	*	*	*	*	*	*	*	*	*	*	*	*	*	*v	*v	*	*	*	*	*
=21	=21	=21	=21	=21	=21	=21	=21	=21	=21	=21	=21	=21	=21	=21	=21	=21	=21	=21	=21	=21	=21	=21	=21	=21	=21	=21	=21	=21	=21	=21	=21	=21	=21	=21	=21	=21	=21	=21	=21	=21
1ryy	(2C#X/	.	1ryy	.	(2c#X/	.	4r	.	4r	.	1r	.	.	1r	.	.	1r	.	.	1r	.	.	1r	.	1r	.	1r	.	1r	.	1r	.	1r	.	1r	.	1r	.	1r	.
.	.	.	.	.	.	.	(4g/	.	(4b/	.	.	.	.	.	.	.	.	.	.	.	.	.	.	.	.	.	.	.	.	.	.	.	.	.	.	.	.	.	.	.
.	4D/)	.	.	.	4d/	.	4f#/	.	4a/	.	.	.	.	.	.	.	.	.	.	.	.	.	.	.	.	.	.	.	.	.	.	.	.	.	.	.	.	.	.	.
.	(4AA#X/	.	.	.	4A#X/	.	4e/	.	4g/)	.	.	.	.	.	.	.	.	.	.	.	.	.	.	.	.	.	.	.	.	.	.	.	.	.	.	.	.	.	.	.
=22	=22	=22	=22	=22	=22	=22	=22	=22	=22	=22	=22	=22	=22	=22	=22	=22	=22	=22	=22	=22	=22	=22	=22	=22	=22	=22	=22	=22	=22	=22	=22	=22	=22	=22	=22	=22	=22	=22	=22	=22
1ryy	2BB/)	.	1ryy	.	2B/)	.	2d/)	.	(>2f#/	.	1r	.	.	1r	.	.	1r	.	.	1r	.	.	1r	.	1r	.	1r	.	1r	.	1r	.	1r	.	1r	.	1r	.	1r	.
.	2GG/	.	.	.	2B/	.	2d/	.	4e/	.	.	.	.	.	.	.	.	.	.	.	.	.	.	.	.	.	.	.	.	.	.	.	.	.	.	.	.	.	.	.
.	.	.	.	.	.	.	.	.	4e#X/	.	.	.	.	.	.	.	.	.	.	.	.	.	.	.	.	.	.	.	.	.	.	.	.	.	.	.	.	.	.	.
=23	=23	=23	=23	=23	=23	=23	=23	=23	=23	=23	=23	=23	=23	=23	=23	=23	=23	=23	=23	=23	=23	=23	=23	=23	=23	=23	=23	=23	=23	=23	=23	=23	=23	=23	=23	=23	=23	=23	=23	=23
*	*	*	*	*	*	*	*	*	*	*	*	*	*	*	*	*	*	*	*	*	*	*	*	*	*	*	*	*	*	*	*^	*	*	*	*^	*	*	*	*	*
!	!	!	!	!	!	!	!	!	!	!LO:HP:b	!	!	!	!	!	!	!	!	!	!	!	!	!	!	!	!	!	!	!	!	!LO:TX:a:t=Io	!	!	!	!	!	!	!	!	!	!	!
1ryy	(4AA/	<	1ryy	.	2.A/	.	2.d/	.	(2f#/)	<	1r	.	.	1r	.	.	1r	.	.	1r	.	.	1r	.	1r	.	1r	.	1r	.	4r	1rFF	p	1r	.	4r	1rf	.	4r	p	4r	p
.	4A\	.	.	.	.	.	.	.	.	.	.	.	.	.	.	.	.	.	.	.	.	.	.	.	.	.	.	.	.	.	(4A\	.	.	.	.	2a/	.	.	4dd\	.	((4ff#\	<
.	4F#\	.	.	.	.	.	.	.	4a/	.	.	.	.	.	.	.	.	.	.	.	.	.	.	.	.	.	.	.	.	.	4F#\	.	.	.	.	.	.	.	2ff#\	.	4aa\	.
.	4D\)	[[	.	.	4A/	.	4f#/	.	(>[4dd\)	[[	.	.	.	.	.	.	.	.	.	.	.	.	.	.	.	.	.	.	.	.	4D\	.	.	.	.	4a/	.	.	.	.	[4ddd\)	[[
=24	=24	=24	=24	=24	=24	=24	=24	=24	=24	=24	=24	=24	=24	=24	=24	=24	=24	=24	=24	=24	=24	=24	=24	=24	=24	=24	=24	=24	=24	=24	=24	=24	=24	=24	=24	=24	=24	=24	=24	=24	=24	=24
*	*	*	*^	*	*	*	*	*	*	*	*	*	*	*	*	*	*	*	*	*	*	*	*	*	*	*	*	*	*	*	*	*	*	*	*	*	*	*	*	*	*	*
1ryy	(2AA/	>	2ryy	2ryy	.	[2G/	.	[2e/	.	4dd\]	>LO:HP:b	2r	.	.	2r	.	.	2r	.	.	2r	.	.	2r	.	2r	.	2r	.	2r	.	[2AA/)	2rFF	.	2r	.	2a/	2g\	.	[2ee\	.	4ddd\]	>
.	.	.	.	.	.	.	.	.	.	8cc#X\L	.	.	.	.	.	.	.	.	.	.	.	.	.	.	.	.	.	.	.	.	.	.	.	.	.	.	.	.	.	.	.	8ccc#X\L	.
.	.	]	.	.	.	.	.	.	.	8b\J	.	.	.	.	.	.	.	.	.	.	.	.	.	.	.	.	.	.	.	.	.	.	.	.	.	.	.	.	.	.	.	8bb\J	.
.	4AA;/)	.	4ryy	4ryy	.	4G;/]	.	4e;/]	.	4cc#;\)	]	4r;	.	.	4r;	.	.	4r;	.	.	4r;	.	.	4r;	.	4r;	.	4r;	.	4r;	.	4AA;/]	4rFF	.	4r;	.	4a;/	4g\	.	4ee;\]	.	4ccc#;\)	]
=||	=||	=||	=||	=||	=||	=||	=||	=||	=||	=||	=||	=||	=||	=||	=||	=||	=||	=||	=||	=||	=||	=||	=||	=||	=||	=||	=||	=||	=||	=||	=||	=||	=||	=||	=||	=||	=||	=||	=||	=||	=||	=||	=||
*	*	*	*	*	*	*	*	*	*	*	*	*	*	*	*	*above	*	*	*	*	*	*	*	*	*	*	*	*	*	*	*	*	*	*	*	*	*	*	*	*	*	*	*
.	4r	.	4A/	4r	.	4r	.	4r	.	4r	.	4r	.	.	4A/	Pa-	.	4r	.	.	4r	.	.	4r	.	4r	.	4r	.	4r	.	4A/	4r	.	4r	.	4r	4ryy	.	4r	.	4r	.
*	*	*	*	*	*	*	*	*	*	*	*	*	*	*	*	*	*	*	*	*	*	*	*	*	*	*	*	*	*	*	*	*	*	*	*	*	*v	*v	*	*	*	*	*
!!LO:PB:g=original
=25	=25	=25	=25	=25	=25	=25	=25	=25	=25	=25	=25	=25	=25	=25	=25	=25	=25	=25	=25	=25	=25	=25	=25	=25	=25	=25	=25	=25	=25	=25	=25	=25	=25	=25	=25	=25	=25	=25	=25	=25	=25	=25
*	*	*	*	*	*	*	*	*	*	*	*	*	*	*	*^	*	*	*	*	*	*	*	*	*	*	*	*	*	*	*	*	*	*	*	*	*	*	*	*	*	*	*
*	*	*	*	*	*	*	*	*	*	*	*	*	*	*	*	*	*^	*	*	*	*	*	*	*	*	*	*	*	*	*	*	*	*	*	*	*	*	*	*	*	*	*	*
*	*2\right	*	*	*	*	*	*	*	*	*	*	*	*	*	*	*	*	*below	*	*	*	*	*	*	*	*	*	*	*	*	*	*	*	*	*	*	*	*	*	*	*	*	*	*
!	!	!	!	!	!	!	!	!	!	!	!	!	!	!	!LO:TX:t=P:problem:tekst nad i pod partią T	!	!	!	!	!	!	!	!	!	!	!	!	!	!	!	!	!	!	!	!	!	!	!	!	!	!	!	!	!
1ryy	2.D\	p	(2A/	2F#\	.	2.D/	.	1r	.	1r	.	2D\	.	.	2A/	2F#\	.	Pa-	.	1r	.	.	1r	.	.	1r	.	1r	.	1r	.	1r	.	(2A/	2F#\	.	1r	.	1r	.	1r	.	1r	.
.	.	.	4F#/)	4D\	.	.	.	.	.	.	.	4D\	.	.	4F#/	4D\	-nem	-nem	.	.	.	.	.	.	.	.	.	.	.	.	.	.	.	4F#/)	4D\	.	.	.	.	.	.	.	.	.
.	4D\	.	4d/	4F#\	.	4D/	.	.	.	.	.	4D\	.	.	4d/	4F#\	Ty	Ty	.	.	.	.	.	.	.	.	.	.	.	.	.	.	.	4d/	4F#\	.	.	.	.	.	.	.	.	.
=26	=26	=26	=26	=26	=26	=26	=26	=26	=26	=26	=26	=26	=26	=26	=26	=26	=26	=26	=26	=26	=26	=26	=26	=26	=26	=26	=26	=26	=26	=26	=26	=26	=26	=26	=26	=26	=26	=26	=26	=26	=26	=26	=26	=26
1ryy	2.E\	.	(4.d/	(2G\	.	2.E/	.	1r	.	1r	.	2E\	.	.	(4.d/	2G\	na-	na-	.	1r	.	.	1r	.	.	1r	.	1r	.	1r	.	1r	.	(4.d/	2.G\	.	1r	.	1r	.	1r	.	1r	.
.	.	.	16e/LL	.	.	.	.	.	.	.	.	.	.	.	16e/LL	.	.	.	.	.	.	.	.	.	.	.	.	.	.	.	.	.	.	16e/LL	.	.	.	.	.	.	.	.	.	.
.	.	.	16d/JJ	.	.	.	.	.	.	.	.	.	.	.	16d/JJ	.	.	.	.	.	.	.	.	.	.	.	.	.	.	.	.	.	.	16d/JJ	.	.	.	.	.	.	.	.	.	.
.	.	.	4c#X/)	4G\)	.	.	.	.	.	.	.	4E\	.	.	4c#X/)	4G\	-szym	-szym	.	.	.	.	.	.	.	.	.	.	.	.	.	.	.	4c#X/)	.	.	.	.	.	.	.	.	.	.
.	4r	.	4B/	4G\	.	4r	.	.	.	.	.	4r	.	.	4B/	4G\	i	i	.	.	.	.	.	.	.	.	.	.	.	.	.	.	.	4B/	4E\	.	.	.	.	.	.	.	.	.
=27	=27	=27	=27	=27	=27	=27	=27	=27	=27	=27	=27	=27	=27	=27	=27	=27	=27	=27	=27	=27	=27	=27	=27	=27	=27	=27	=27	=27	=27	=27	=27	=27	=27	=27	=27	=27	=27	=27	=27	=27	=27	=27	=27	=27
!	!	!	!	!	!	!	!	!	!	!	!	!	!	!	!	!	!	!	!	!	!	!	!	!	!	!	!	!	!	!	!	!	!	!	!LO:SIC:v:s=4.F#	!	!	!	!	!	!	!	!	!
1ryy	2r	.	(4.A/	(>4.F#\	.	2r	.	1r	.	1r	.	2r	.	.	(>4.F#/ 4.A	4.ryy	Oj-	Oj-	.	1r	.	.	1r	.	.	1r	.	1r	.	1r	.	1r	.	(4.A/	4.E\	.	1r	.	1r	.	1r	.	1r	.
.	.	.	8B/)	8G\)	.	.	.	.	.	.	.	.	.	.	8G/) 8B	8ryy	.	.	.	.	.	.	.	.	.	.	.	.	.	.	.	.	.	8B/)	8G\	.	.	.	.	.	.	.	.	.
.	4r	.	4A/	4F#\	.	4r	.	.	.	.	.	4r	.	.	4F#/ 4A	4ryy	-cem	-cem	.	.	.	.	.	.	.	.	.	.	.	.	.	.	.	4A/	4F#\	.	.	.	.	.	.	.	.	.
.	(4AA/	.	(4AA\ 4c#X	4ryy	.	(>4G/	.	.	.	.	.	4AA/	.	.	4c#X/	4G\	na	na	.	.	.	.	.	.	.	.	.	.	.	.	.	.	.	4c#X/	4E\	.	.	.	.	.	.	.	.	.
*	*	*	*v	*v	*	*	*	*	*	*	*	*	*	*	*	*	*	*	*	*	*	*	*	*	*	*	*	*	*	*	*	*	*	*	*	*	*	*	*	*	*	*	*	*
=28	=28	=28	=28	=28	=28	=28	=28	=28	=28	=28	=28	=28	=28	=28	=28	=28	=28	=28	=28	=28	=28	=28	=28	=28	=28	=28	=28	=28	=28	=28	=28	=28	=28	=28	=28	=28	=28	=28	=28	=28	=28	=28	=28
!	!	!	!	!	!	!	!	!	!	!	!	!	!	!LO:N:vis=4..	!LO:N:vis=4..	!	!	!	!	!	!	!	!	!	!	!	!	!	!	!	!	!	!	!	!	!	!	!	!	!	!	!	!
1ryy	4.AA/	.	4.AA\ 4.c	.	(>4.G/)	.	1r	.	2r	.	(4.AA/	.	.	(4.c#X/	(>4.G\	wie-	wie-	.	1r	.	.	1r	.	.	1r	.	1r	.	1r	.	1r	.	(4.c#X/	4.E\	.	1r	.	1r	.	2r	.	2r	.
.	8D/)	.	8D\) 8d	.	8F#/)	.	.	.	.	.	8D/)	.	.	8e/)	8F#\)	.	.	.	.	.	.	.	.	.	.	.	.	.	.	.	.	.	8d/)	8F#\	.	.	.	.	.	.	.	.	.
.	8D/	.	8D\ 8d	.	8F#/	.	.	.	16r	.	8D/	.	.	8d/	8F#\	-ki	-ki	.	.	.	.	.	.	.	.	.	.	.	.	.	.	.	4d/	4F#\	.	.	.	.	.	16r	.	16r	.
.	.	.	.	.	.	.	.	.	(16a/LL	.	.	.	.	.	.	.	.	.	.	.	.	.	.	.	.	.	.	.	.	.	.	.	.	.	.	.	.	.	.	(16a/LL	.	(16aa\LL	.
!	!	!	!	!	!	!	!	!	!	!LO:HP:b	!	!	!	!	!	!	!	!	!	!	!	!	!	!	!	!	!	!	!	!	!	!	!	!	!	!	!	!	!	!	!	!	!
.	8r	.	8r	.	8r	.	.	.	16g#X/	<	8r	.	.	8r	8r	.	.	.	.	.	.	.	.	.	.	.	.	.	.	.	.	.	.	.	.	.	.	.	.	16g#X/	.	16gg#X\	.
.	.	.	.	.	.	.	.	.	16a/JJ	.	.	.	.	.	.	.	.	.	.	.	.	.	.	.	.	.	.	.	.	.	.	.	.	.	.	.	.	.	.	16a/JJ	.	16aa\JJ	.
.	4r	.	4r	.	4r	.	.	.	16b/LL	.	4r	.	.	4r	4r	.	.	.	.	.	.	.	.	.	.	.	.	.	.	.	.	.	4r	4r	.	.	.	.	.	16b/LL	.	16bb\LL	.
.	.	.	.	.	.	.	.	.	16cc#X/	.	.	.	.	.	.	.	.	.	.	.	.	.	.	.	.	.	.	.	.	.	.	.	.	.	.	.	.	.	.	16cc#X/	.	16ccc#X\	.
.	.	.	.	.	.	.	.	.	16dd/	.	.	.	.	.	.	.	.	.	.	.	.	.	.	.	.	.	.	.	.	.	.	.	.	.	.	.	.	.	.	16dd/	.	16ddd\	.
.	.	.	.	.	.	.	.	.	16dd#X/JJ)	[[	.	.	.	.	.	.	.	.	.	.	.	.	.	.	.	.	.	.	.	.	.	.	.	.	.	.	.	.	.	16dd#X/JJ	.	16ddd#X\JJ	.
*	*	*	*	*	*	*	*	*	*	*	*	*	*	*	*	*v	*v	*	*	*	*	*	*	*	*	*	*	*	*	*	*	*	*	*	*	*	*	*	*	*	*	*	*
=29	=29	=29	=29	=29	=29	=29	=29	=29	=29	=29	=29	=29	=29	=29	=29	=29	=29	=29	=29	=29	=29	=29	=29	=29	=29	=29	=29	=29	=29	=29	=29	=29	=29	=29	=29	=29	=29	=29	=29	=29	=29	=29
*	*	*	*	*	*	*	*	*	*	*	*	*	*	*	*	*	*	*	*	*	*	*	*	*	*	*	*	*	*	*	*	*	*	*	*^	*	*^	*	*	*	*	*
*	*	*	*	*	*	*	*	*	*	*	*	*	*	*	*	*below	*	*	*	*	*	*	*	*	*	*	*	*	*	*	*	*	*	*	*	*	*	*	*	*	*	*	*	*
!	!	!	!	!	!	!	!	!	!	!LO:DY:b	!	!	!	!	!	!	!	!	!	!	!	!	!	!	!	!	!	!	!	!	!	!	!	!	!	!	!	!	!	!	!	!	!	!
1ryy	4C#X/	f	1ryy	.	8r	.	8r	.	8r	f	2C#X/	.	.	2e^/	2A\	Cho-	.	2a/	Cho-	.	2ee^\	Cho-	.	1r	.	1r	.	1r	.	1r	.	2A\	2C#X\	.	2ee/	2cc#X\	.	2a/	2a^\	.	2ee^/)	.	2eee^<\)	.
.	.	.	.	.	8e\L	.	8a/L	.	8ee\L	.	.	.	.	.	.	.	.	.	.	.	.	.	.	.	.	.	.	.	.	.	.	.	.	.	.	.	.	.	.	.	.	.	.	.
.	4r	.	.	.	8e\	.	8a/	.	8ee\	.	.	.	.	.	.	.	.	.	.	.	.	.	.	.	.	.	.	.	.	.	.	.	.	.	.	.	.	.	.	.	.	.	.	.
.	.	.	.	.	8e\J	.	8a/J	.	8ee\J	.	.	.	.	.	.	.	.	.	.	.	.	.	.	.	.	.	.	.	.	.	.	.	.	.	.	.	.	.	.	.	.	.	.	.
.	4C#/	.	.	.	8r	.	8r	.	8r	.	2C#/	.	.	2A^/	2A\	-ciasz	.	2a/	-ciasz	.	2a^>/	-ciasz	.	.	.	.	.	.	.	.	.	2A\	2C#\	.	2ee/	2cc#\	.	2a/	2a^\	.	2a^/	.	2aa^<\	.
.	.	.	.	.	8e\L	.	8a/L	.	8a/L	.	.	.	.	.	.	.	.	.	.	.	.	.	.	.	.	.	.	.	.	.	.	.	.	.	.	.	.	.	.	.	.	.	.	.
.	4r	.	.	.	8e\	.	8a/	.	8a/	.	.	.	.	.	.	.	.	.	.	.	.	.	.	.	.	.	.	.	.	.	.	.	.	.	.	.	.	.	.	.	.	.	.	.
.	.	.	.	.	8e\J	.	8a/J	.	8a/J	.	.	.	.	.	.	.	.	.	.	.	.	.	.	.	.	.	.	.	.	.	.	.	.	.	.	.	.	.	.	.	.	.	.	.
*	*	*	*	*	*	*	*	*	*	*	*	*	*	*	*	*	*	*	*	*	*	*	*	*	*	*	*	*	*	*	*	*v	*v	*	*	*	*	*	*	*	*	*	*	*
!!LO:PB:g=original
=30	=30	=30	=30	=30	=30	=30	=30	=30	=30	=30	=30	=30	=30	=30	=30	=30	=30	=30	=30	=30	=30	=30	=30	=30	=30	=30	=30	=30	=30	=30	=30	=30	=30	=30	=30	=30	=30	=30	=30	=30	=30	=30	=30
1ryy	8D/	.	1ryy	.	8r	.	8r	.	8r	.	(4D/	sła-	.	(4f#/	4A\	.	.	(>4a/	.	.	(4ff#\	sła-	.	1r	.	1r	.	1r	.	1r	.	4D\ 4A	.	4dd/	4dd\	.	4a/	2.f#\	.	4ff#\	.	(4fff#\	.
.	8r	.	.	.	8A/ 8f#	.	8a/	.	8ff#\	.	.	.	.	.	.	.	.	.	.	.	.	.	.	.	.	.	.	.	.	.	.	.	.	.	.	.	.	.	.	.	.	.	.
.	8C#X/	.	.	.	8r	.	8r	.	8r	.	4C#X/)	.	.	4e/)	4A#X\	.	.	4a#X/)	.	.	4ee\)	.	.	.	.	.	.	.	.	.	.	(4C#X\ 4c#X	.	4r	4ryy	.	4a#X/	.	.	4ee\	.	4eee\	.
.	8r	.	.	.	8A#X/ 8f#	.	8a#X/	.	8ee\	.	.	.	.	.	.	.	.	.	.	.	.	.	.	.	.	.	.	.	.	.	.	.	.	.	.	.	.	.	.	.	.	.	.
.	8BB/	.	.	.	8r	.	8r	.	8r	.	(4BB/	-bi	.	(4d/	4B\	.	.	(>4b/	.	.	(4dd\	-bi	.	.	.	.	.	.	.	.	.	4AA\ 4A	.	2r	2ryy	.	4b/	.	.	4dd\	.	4ddd\	.
.	8r	.	.	.	8B/ 8f#	.	8b/	.	8dd\	.	.	.	.	.	.	.	.	.	.	.	.	.	.	.	.	.	.	.	.	.	.	.	.	.	.	.	.	.	.	.	.	.	.
.	8GG/	.	.	.	8r	.	8r	.	8r	.	4GG/)	.	.	4e/)	4B-X\	.	.	4b-X/)	.	.	4ee\)	.	.	.	.	.	.	.	.	.	.	4GG\) 4G	.	.	.	.	4b-X/	4g\	.	4ee\	.	4eee\	.
.	8r	.	.	.	8B-X\ 8g	.	8b-X/	.	8ee\	.	.	.	.	.	.	.	.	.	.	.	.	.	.	.	.	.	.	.	.	.	.	.	.	.	.	.	.	.	.	.	.	.	.
=31	=31	=31	=31	=31	=31	=31	=31	=31	=31	=31	=31	=31	=31	=31	=31	=31	=31	=31	=31	=31	=31	=31	=31	=31	=31	=31	=31	=31	=31	=31	=31	=31	=31	=31	=31	=31	=31	=31	=31	=31	=31	=31	=31
*	*	*	*	*	*^	*	*	*	*	*	*	*	*	*	*	*	*	*	*	*	*	*	*	*	*	*	*	*	*	*	*	*	*	*	*	*	*	*	*	*	*	*	*
!	!	!	!	!	!	!	!	!	!	!	!LO:HP:b	!	!	!	!	!	!	!	!	!	!	!	!	!	!	!	!	!	!	!	!	!	!	!LO:HP:a	!	!	!	!	!	!	!	!	!	!
1ryy	4AA/	<	1ryy	.	(4a/	2A\	.	(4a/	.	2cc#Xt\	<	(2AA/	po-	.	(2e/	(>2A\	.	.	(4a/	.	.	(<2cc#Xt\	po-	.	2r	<	2r	.	2r	.	2r	.	2AA\ 2A	<	2r	2ryy	.	(2a/	4e\	.	2cc#Xt\	.	(2ccc#Xt\)	<
.	4r	.	.	.	4g/)	.	.	4g/	.	.	.	.	.	.	.	.	.	.	(4g/)	.	.	.	.	.	.	.	.	.	.	.	.	.	.	.	.	.	.	.	4g\	.	.	.	.	.
.	.	.	.	.	.	.	.	.	.	(16qqb/LL	.	.	.	.	.	.	.	.	.	.	.	16qqb/LL	.	.	.	.	.	.	.	.	.	.	.	.	.	.	.	.	.	.	16qqb/LL	.	16qqbb/LL	.
.	.	.	.	.	.	.	.	.	.	16qqcc#/JJ)	.	.	.	.	.	.	.	.	.	.	.	16qqcc#/JJ)	.	.	.	.	.	.	.	.	.	.	.	.	.	.	.	.	.	.	16qqcc#/JJ	.	16qqccc#/JJ	.
.	8BB/	.	.	.	8B\L 8f#	2ryy	.	8f#/L)	.	8dd\L	.	4BB/)	.	.	4d/)	4F#\)	.	.	4f#/)	.	.	4dd\	.	.	4r	.	4r	.	4r	.	4r	.	4AA\ 4A	.	4r	4ryy	.	4a/)	4f#\	.	4dd\	.	4ddd\)	.
.	8r	.	.	.	8B\J 8f#	.	.	8f#/J	.	8dd\J	.	.	.	.	.	.	.	.	.	.	.	.	.	.	.	.	.	.	.	.	.	.	.	.	.	.	.	.	.	.	.	.	.	.
.	8AA/	.	.	.	8rF	.	.	8r	.	8r	.	4AA/	-błą-	.	4c#X/	4A\	.	.	4a/	.	.	4ee\	-błą-	.	4BB\ 4A	[[	4c#X\	<[	4e\	<[	4cc#X\ 4ee	<[	4AA\ 4A	[[	4ee/	4cc#X\	.	4cc#X/	4a\	.	4ee\	.	4eee\	[[
.	8r	[	.	.	8A/ 8e	.	.	8cc#X\	.	8a\ 8ee	[	.	.	.	.	.	.	.	.	.	.	.	.	.	.	.	.	.	.	.	.	.	.	.	.	.	.	.	.	.	.	.	.	.
*	*	*	*	*	*v	*v	*	*	*	*	*	*	*	*	*	*	*	*	*	*	*	*	*	*	*	*	*	*	*	*	*	*	*	*	*	*	*	*	*	*	*	*	*	*
=32	=32	=32	=32	=32	=32	=32	=32	=32	=32	=32	=32	=32	=32	=32	=32	=32	=32	=32	=32	=32	=32	=32	=32	=32	=32	=32	=32	=32	=32	=32	=32	=32	=32	=32	=32	=32	=32	=32	=32	=32	=32	=32	=32
*	*	*	*^	*	*	*	*	*	*	*	*	*	*	*	*	*	*	*	*	*	*	*	*	*^	*	*	*	*	*	*^	*	*^	*	*	*	*	*	*	*	*	*	*	*
*	*	*	*	*	*	*	*	*	*	*	*	*	*	*	*	*	*^	*	*	*	*	*	*	*	*	*	*	*	*	*	*	*	*	*	*	*	*	*	*	*	*	*	*	*	*	*	*
*	*	*	*	*	*	*	*	*	*	*	*	*	*	*	*	*	*	*	*	*	*	*	*	*	*	*	*	*	*2\right	*	*	*	*	*	*	*	*	*	*	*	*	*	*	*	*	*	*	*
!	!	!	!	!	!	!	!	!	!	!	!LO:DY:b	!	!	!	!	!	!	!	!	!	!	!	!	!	!	!	!	!	!	!	!	!	!	!	!	!	!	!LO:DY:b	!	!	!	!	!	!	!	!	!	!
1ryy	2D\	f	2D/	2ryy	.	8r	.	8r	f	8r	f	2D/	-dzi-	.	2d/	2A\	.	.	.	2a/	.	.	2ff#\	-dzi-	.	(2A\	(>2D\	f >	(2d\	f	(2f#X\	f	(2ff#X/	2dd\	f	(2A/	(2D\	f	(2ff#/	2dd\	f	(2dd/	2.a\	.	(2ff#\	.	(2fff#\	f
.	.	.	.	.	.	8A/L 8f#	.	8dd\L	.	8a\L 8ff#	.	.	.	.	.	.	.	.	.	.	.	.	.	.	.	.	.	.	.	.	.	.	.	.	.	.	.	.	.	.	.	.	.	.	.	.	.	.
.	.	.	.	.	.	8A/ 8f#	.	8dd\	.	8a\ 8ff#	.	.	.	.	.	.	.	.	.	.	.	.	.	.	.	.	.	.	.	.	.	.	.	.	.	.	.	.	.	.	.	.	.	.	.	.	.	.
.	.	.	.	.	.	8A/J 8f#	.	8dd\J	.	8a\J 8ff#	.	.	.	.	.	.	.	.	.	.	.	.	.	.	.	.	.	.	.	.	.	.	.	.	.	.	.	.	.	.	.	.	.	.	.	.	.	.
.	4AA/	.	4AA/	4ryy	.	4A/ 4e	.	4cc#X\	.	4a\ 4ee	.	4AA/	-my	.	4c#X/	4A\	.	.	.	4a/	.	.	4ee\	-my	.	4A\)	4BB\)	.	4c#X\)	.	4e\)	.	4ee/)	4cc#X\	.	4A/)	4AA/)	.	4ee/)	4cc\	.	4cc#X/)	.	.	4ee\)	.	4eee\)	.
*	*	*	*	*	*	*	*	*	*	*	*	*	*	*	*	*	*above	*	*	*	*	*	*	*	*	*	*	*	*	*	*	*	*	*	*	*	*	*	*	*	*	*	*	*	*	*	*	*
!	!	!	!	!	!	!	!	!	!	!	!	!	!	!	!	!	!LO:TX:t=P:problem:tekst nad i pod partią T	!	!	!	!	!	!	!	!	!	!	!	!	!	!	!	!	!	!	!	!	!	!	!	!	!	!	!	!	!	!	!
.	4r	.	4A/	4r	.	4r	.	4r	.	4r	.	4r	.	.	[4A/	4r	Prze-	.	.	4r	.	.	4r	.	.	4r	4r	]	4r	.	4r	.	4r	4ryy	.	4A/	4r	.	4r	4ryy	.	4r	4ryy	.	4r	.	4r	.
*	*	*	*	*	*	*	*	*	*	*	*	*	*	*	*	*	*	*	*	*	*	*	*	*	*	*	*	*	*	*	*	*	*	*	*	*	*	*	*v	*v	*	*	*	*	*	*	*	*
*	*	*	*	*	*	*	*	*	*	*	*	*	*	*	*	*	*	*	*	*	*	*	*	*	*	*v	*v	*	*	*	*	*	*v	*v	*	*	*	*	*	*	*v	*v	*	*	*	*	*
=33	=33	=33	=33	=33	=33	=33	=33	=33	=33	=33	=33	=33	=33	=33	=33	=33	=33	=33	=33	=33	=33	=33	=33	=33	=33	=33	=33	=33	=33	=33	=33	=33	=33	=33	=33	=33	=33	=33	=33	=33	=33	=33	=33	=33
*	*	*	*	*	*	*	*	*	*	*	*	*	*	*	*	*	*	*below	*	*	*	*	*	*	*	*	*	*	*	*	*	*	*	*	*	*	*	*	*	*	*	*	*	*
!	!	!	!	!	!	!	!LO:DY:a	!	!	!	!	!	!	!	!	!	!	!	!	!	!	!	!	!	!	!	!	!	!	!	!	!	!	!	!	!	!	!	!	!	!	!	!	!
1ryy	2.D\	p	2A/	2F#\	p	(2D/	p	1r	.	1r	.	2D\	.	.	2A/]	2F#\	.	Prze-	.	1r	.	.	1r	.	.	1r	.	1r	.	1r	.	1r	.	(2A/	(>(2F#\	p	1r	.	1r	.	1r	.	1r	.
.	.	.	.	.	.	.	.	.	.	.	.	.	.	.	.	.	.	.	.	.	.	.	.	.	.	.	.	.	.	.	.	.	.	16qqB/LL	.	.	.	.	.	.	.	.	.	.
.	.	.	.	.	.	.	.	.	.	.	.	.	.	.	.	.	.	.	.	.	.	.	.	.	.	.	.	.	.	.	.	.	.	16qqA/JJ)	.	.	.	.	.	.	.	.	.	.
.	.	.	4F#/	4D\	.	4D/)	.	.	.	.	.	4D\	.	.	4F#/	4D\	-cie	-cie	.	.	.	.	.	.	.	.	.	.	.	.	.	.	.	4F#/)	4D\)	.	.	.	.	.	.	.	.	.
.	4D\	.	4d/	4F#\	.	4D/	.	.	.	.	.	4D\	.	.	4d/	4F#\	z_pod	z_pod	.	.	.	.	.	.	.	.	.	.	.	.	.	.	.	4d/	4F#\	.	.	.	.	.	.	.	.	.
=34	=34	=34	=34	=34	=34	=34	=34	=34	=34	=34	=34	=34	=34	=34	=34	=34	=34	=34	=34	=34	=34	=34	=34	=34	=34	=34	=34	=34	=34	=34	=34	=34	=34	=34	=34	=34	=34	=34	=34	=34	=34	=34	=34	=34
1ryy	2.E\	.	(4.d/	2.G\	.	2.E/	.	1r	.	1r	.	2E\	.	.	(4.d/	2G\	Two-	Two-	.	1r	.	.	1r	.	.	1r	.	1r	.	1r	.	1r	.	(4.d/	2.G\	.	1r	.	1r	.	1r	.	1r	.
.	.	.	16e/LL	.	.	.	.	.	.	.	.	.	.	.	16e/LL	.	.	.	.	.	.	.	.	.	.	.	.	.	.	.	.	.	.	16e/LL	.	.	.	.	.	.	.	.	.	.
.	.	.	16d/JJ	.	.	.	.	.	.	.	.	.	.	.	16d/JJ)	.	.	.	.	.	.	.	.	.	.	.	.	.	.	.	.	.	.	16d/JJ	.	.	.	.	.	.	.	.	.	.
.	.	.	4c#X/)	.	.	.	.	.	.	.	.	4E\	.	.	4c#X/	4G\	-iej	-iej	.	.	.	.	.	.	.	.	.	.	.	.	.	.	.	4c#X/)	.	.	.	.	.	.	.	.	.	.
.	4r	.	4B/	4G\	.	4r	.	.	.	.	.	4r	.	.	4B/	4G\	nie-	nie-	.	.	.	.	.	.	.	.	.	.	.	.	.	.	.	4B/	4G\	.	.	.	.	.	.	.	.	.
!!LO:PB:g=original
=35	=35	=35	=35	=35	=35	=35	=35	=35	=35	=35	=35	=35	=35	=35	=35	=35	=35	=35	=35	=35	=35	=35	=35	=35	=35	=35	=35	=35	=35	=35	=35	=35	=35	=35	=35	=35	=35	=35	=35	=35	=35	=35	=35	=35
1ryy	2r	.	(4.A/	4.F#\	.	2r	.	1r	.	1r	.	2r	.	.	(4.A/	4.F#\	-wyj-	-wyj-	.	1r	.	.	1r	.	.	1r	.	1r	.	1r	.	1r	.	(4.A/	4.F#\	.	1ryy	.	1ryy	.	1ryy	.	1ryy	.
.	.	.	8B/	8G\	.	.	.	.	.	.	.	.	.	.	8B/	8G\	.	.	.	.	.	.	.	.	.	.	.	.	.	.	.	.	.	8B/)	8G\	.	.	.	.	.	.	.	.	.
.	4r	.	4A/)	4F#\	.	4r	.	.	.	.	.	4r	.	.	4A/)	4F#\	-dziem	-dziem	.	.	.	.	.	.	.	.	.	.	.	.	.	.	.	4A/	4F#\	.	.	.	.	.	.	.	.	.
.	4AA/	.	(4c#X/	4AA\	.	4G/	.	.	.	.	.	4AA/	.	.	4c#X/	4G\	o-	o-	.	.	.	.	.	.	.	.	.	.	.	.	.	.	.	4c#X/	4E\	.	.	.	.	.	.	.	.	.
=36	=36	=36	=36	=36	=36	=36	=36	=36	=36	=36	=36	=36	=36	=36	=36	=36	=36	=36	=36	=36	=36	=36	=36	=36	=36	=36	=36	=36	=36	=36	=36	=36	=36	=36	=36	=36	=36	=36	=36	=36	=36	=36	=36	=36
1ryy	(4.AA/	.	4.c#X/	4.AA\	.	(>4.G/	.	1r	.	1r	.	(4.AA/	.	.	(4.c#X/	4.G\	-pie-	-pie-	.	1r	.	.	1r	.	.	1r	.	1r	.	1r	.	1r	.	(4.c#X/	4.E\	.	1ryy	.	1ryy	.	1ryy	.	1ryy	.
.	8D/)	.	8d/)	8D\	.	8F#/)	.	.	.	.	.	8D/)	.	.	8d/)	8F#\	.	.	.	.	.	.	.	.	.	.	.	.	.	.	.	.	.	8d/)	8F#\	.	.	.	.	.	.	.	.	.
.	4D/	.	(4d/	4D\	.	4F#/	.	.	.	.	.	4D/	.	.	4d/	4F#\	-ki	-ki	.	.	.	.	.	.	.	.	.	.	.	.	.	.	.	4d/	4F#\	.	.	.	.	.	.	.	.	.
.	4r	.	8c#/L	4r	.	4r	.	.	.	.	.	4r	.	.	(8c#/L	4r	Gdy	.	.	.	.	.	.	.	.	.	.	.	.	.	.	.	.	8c#/L	4r	.	.	.	.	.	.	.	.	.
.	.	.	8d/J	.	.	.	.	.	.	.	.	.	.	.	8d/J	.	.	.	.	.	.	.	.	.	.	.	.	.	.	.	.	.	.	8d/J	.	.	.	.	.	.	.	.	.	.
=37	=37	=37	=37	=37	=37	=37	=37	=37	=37	=37	=37	=37	=37	=37	=37	=37	=37	=37	=37	=37	=37	=37	=37	=37	=37	=37	=37	=37	=37	=37	=37	=37	=37	=37	=37	=37	=37	=37	=37	=37	=37	=37	=37	=37
1ryy	1GG	.	2BS/)	2G\	.	2B/	.	1r	.	1r	.	2G\	.	.	2B/)	2B\	.	Gdy	.	1r	.	.	1r	.	.	1r	.	1r	.	1r	.	1r	.	(2BS/	2G\	.	1ryy	.	1ryy	.	1ryy	.	1ryy	.
.	.	.	(4f#/	2G\	.	(>2B/	.	.	.	.	.	2B\	.	.	(4f#/	2B\	Cię	Cię	.	.	.	.	.	.	.	.	.	.	.	.	.	.	.	4f#/	2G\ 2B	.	.	.	.	.	.	.	.	.
.	.	.	4e/)	.	.	.	.	.	.	.	.	.	.	.	4e/)	.	.	.	.	.	.	.	.	.	.	.	.	.	.	.	.	.	.	4e/)	.	.	.	.	.	.	.	.	.	.
=38	=38	=38	=38	=38	=38	=38	=38	=38	=38	=38	=38	=38	=38	=38	=38	=38	=38	=38	=38	=38	=38	=38	=38	=38	=38	=38	=38	=38	=38	=38	=38	=38	=38	=38	=38	=38	=38	=38	=38	=38	=38	=38	=38	=38
1ryy	1AA	.	(4.A/	2F#\	.	2A/)	.	1r	.	1r	.	2F#\	.	.	(4.A/	2A\	po-	po-	.	1r	.	.	1r	.	.	1r	.	1r	.	1r	.	1r	.	(4.A/	2F#\	.	1ryy	.	1ryy	.	1ryy	.	1ryy	.
.	.	.	8d/	.	.	.	.	.	.	.	.	.	.	.	8d/	.	.	.	.	.	.	.	.	.	.	.	.	.	.	.	.	.	.	8d/	.	.	.	.	.	.	.	.	.	.
.	.	.	2d/)	2F#\	.	2A/	.	.	.	.	.	2F#\	.	.	2d/)	2A\	-śród	-śród	.	.	.	.	.	.	.	.	.	.	.	.	.	.	.	2d/)	2F#\	.	.	.	.	.	.	.	.	.
=39	=39	=39	=39	=39	=39	=39	=39	=39	=39	=39	=39	=39	=39	=39	=39	=39	=39	=39	=39	=39	=39	=39	=39	=39	=39	=39	=39	=39	=39	=39	=39	=39	=39	=39	=39	=39	=39	=39	=39	=39	=39	=39	=39	=39
1ryy	2.AA/	.	(4.c#X/	2.E\	.	2.G/	.	1r	.	1r	.	2.E\	.	.	(4.c#X/	2.G\	nas	nas	.	1r	.	.	1r	.	.	1r	.	1r	.	1r	.	1r	.	(4.c#X/	2.E\	.	1ryy	.	1ryy	.	1ryy	.	1ryy	.
.	.	.	16d/LL	.	.	.	.	.	.	.	.	.	.	.	16d/LL	.	.	.	.	.	.	.	.	.	.	.	.	.	.	.	.	.	.	16d/LL	.	.	.	.	.	.	.	.	.	.
.	.	.	16c#/JJ	.	.	.	.	.	.	.	.	.	.	.	16c#/JJ	.	.	.	.	.	.	.	.	.	.	.	.	.	.	.	.	.	.	16c#/JJ	.	.	.	.	.	.	.	.	.	.
.	.	.	4B/)	.	.	.	.	.	.	.	.	.	.	.	4B/)	.	.	.	.	.	.	.	.	.	.	.	.	.	.	.	.	.	.	4B/	.	.	.	.	.	.	.	.	.	.
.	4AA/	.	4c#/	4E\	.	4G/	.	.	.	.	.	4AA/	.	.	(4c#/	4G\	czu	czu	.	.	.	.	.	.	.	.	.	.	.	.	.	.	.	4c#/)	4E\	.	.	.	.	.	.	.	.	.
*	*	*	*	*	*	*	*	*	*	*	*	*	*	*	*	*	*v	*v	*	*	*	*	*	*	*	*	*	*	*	*	*	*	*	*	*	*	*	*	*	*	*	*	*	*
*	*	*	*	*	*	*	*	*	*	*	*	*	*	*	*v	*v	*	*	*	*	*	*	*	*	*	*	*	*	*	*	*	*	*v	*v	*	*	*	*	*	*	*	*	*
!!LO:PB:g=original
=40	=40	=40	=40	=40	=40	=40	=40	=40	=40	=40	=40	=40	=40	=40	=40	=40	=40	=40	=40	=40	=40	=40	=40	=40	=40	=40	=40	=40	=40	=40	=40	=40	=40	=40	=40	=40	=40	=40	=40	=40	=40
*	*	*	*	*	*	*	*	*	*	*	*	*	*	*	*	*below	*	*	*	*	*	*	*	*	*	*	*	*	*	*	*	*	*	*	*	*	*	*	*	*	*
1ryy	(4.AA/	.	(4.c#\	(>4.AA\	.	4.G/	.	1r	.	2r	.	(4.AA/	.	.	4.G/ 4.c#	ie-	.	1r	.	.	1r	.	.	1r	.	1r	.	1r	.	1r	.	(4.G\ 4.c#X	.	1r	.	1r	.	1r	.	2r	.
.	8D/)	.	8d\)	8D\)	.	8F#/	.	.	.	.	.	8D/)	.	.	8F#/ 8d	.	.	.	.	.	.	.	.	.	.	.	.	.	.	.	.	8F#\) 8d	.	.	.	.	.	.	.	.	.
.	4D/	.	4d\	4D\	.	4F#/	.	.	.	4r	.	4D/	.	.	4F#/) 4d	-my	.	.	.	.	.	.	.	.	.	.	.	.	.	.	.	4F#\ 4d	.	.	.	.	.	.	.	4r	.
.	4r	.	4r	4ryy	.	(4d\	.	.	.	([4dd\	.	4r	.	.	4r	.	.	.	.	.	.	.	.	.	.	.	.	.	.	.	.	4r	.	.	.	.	.	.	.	([4ddd\	.
*	*	*	*v	*v	*	*	*	*	*	*	*	*	*	*	*	*	*	*	*	*	*	*	*	*	*	*	*	*	*	*	*	*	*	*	*	*	*	*	*	*	*
=41	=41	=41	=41	=41	=41	=41	=41	=41	=41	=41	=41	=41	=41	=41	=41	=41	=41	=41	=41	=41	=41	=41	=41	=41	=41	=41	=41	=41	=41	=41	=41	=41	=41	=41	=41	=41	=41	=41	=41	=41
!	!	!	!	!	!LO:TUP:a:problem:brak klamry	!	!	!	!LO:TUP:a:problem:brak klamry	!	!	!	!	!	!	!	!	!	!	!	!	!	!	!	!	!	!	!	!	!	!	!	!	!	!	!	!	!	!LO:TUP:a:problem:brak klamry	!
1ryy	1r	.	1r	.	6d\	.	1r	.	6dd\]	.	1r	.	.	1r	.	.	1r	.	.	1r	.	.	1r	.	1r	.	1r	.	1r	.	1r	.	1r	.	1r	.	1r	.	6ddd\]	.
.	.	.	.	.	6e\	.	.	.	6ee\	.	.	.	.	.	.	.	.	.	.	.	.	.	.	.	.	.	.	.	.	.	.	.	.	.	.	.	.	.	6eee\	.
.	.	.	.	.	6d\	.	.	.	6dd\	.	.	.	.	.	.	.	.	.	.	.	.	.	.	.	.	.	.	.	.	.	.	.	.	.	.	.	.	.	6ddd\	.
!	!	!	!	!	!LO:TUP:a:problem:brak klamry	!	!	!	!LO:TUP:a:problem:brak klamry	!	!	!	!	!	!	!	!	!	!	!	!	!	!	!	!	!	!	!	!	!	!	!	!	!	!	!	!	!	!LO:TUP:a:problem:brak klamry	!
.	.	.	.	.	6c/	.	.	.	6cc\	.	.	.	.	.	.	.	.	.	.	.	.	.	.	.	.	.	.	.	.	.	.	.	.	.	.	.	.	.	6ccc\	.
.	.	.	.	.	6A/	.	.	.	6a\	.	.	.	.	.	.	.	.	.	.	.	.	.	.	.	.	.	.	.	.	.	.	.	.	.	.	.	.	.	6aa\	.
.	.	.	.	.	6d/)	.	.	.	6dd\)	.	.	.	.	.	.	.	.	.	.	.	.	.	.	.	.	.	.	.	.	.	.	.	.	.	.	.	.	.	6ddd\)	.
=42	=42	=42	=42	=42	=42	=42	=42	=42	=42	=42	=42	=42	=42	=42	=42	=42	=42	=42	=42	=42	=42	=42	=42	=42	=42	=42	=42	=42	=42	=42	=42	=42	=42	=42	=42	=42	=42	=42	=42	=42
!	!	!	!	!	!	!	!	!	!	!	!	!	!	!	!	!	!	!	!	!LO:TX:a:t=dolce	!	!	!	!	!	!	!	!	!	!	!	!	!	!	!	!	!	!	!	!
1ryy	1ryy	.	1ryy	.	1ryy	.	1ryy	.	1ryy	.	1r	.	.	2G/	Nie-	.	2b/	.	.	2dd\	Nie-	.	1ryy	.	1ryy	.	1ryy	.	1ryy	.	1ryy	.	1ryy	.	1ryy	.	1ryy	.	1ryy	.
.	.	.	.	.	.	.	.	.	.	.	.	.	.	4e\	-chaj	.	4g/	.	.	4b\	-chaj	.	.	.	.	.	.	.	.	.	.	.	.	.	.	.	.	.	.	.
.	.	.	.	.	.	.	.	.	.	.	.	.	.	4e-X\	w_Chri-	.	4g/	.	.	4cc\	w_Chri-	.	.	.	.	.	.	.	.	.	.	.	.	.	.	.	.	.	.	.
=43	=43	=43	=43	=43	=43	=43	=43	=43	=43	=43	=43	=43	=43	=43	=43	=43	=43	=43	=43	=43	=43	=43	=43	=43	=43	=43	=43	=43	=43	=43	=43	=43	=43	=43	=43	=43	=43	=43	=43	=43
1ryy	1ryy	.	1ryy	.	1ryy	.	1ryy	.	1ryy	.	1r	.	.	(8d\L	-stu-	.	(4f#/	.	.	(4a/	-stu-	.	1ryy	.	1ryy	.	1ryy	.	1ryy	.	1ryy	.	1ryy	.	1ryy	.	1ryy	.	1ryy	.
.	.	.	.	.	.	.	.	.	.	.	.	.	.	8c\	.	.	.	.	.	.	.	.	.	.	.	.	.	.	.	.	.	.	.	.	.	.	.	.	.	.
.	.	.	.	.	.	.	.	.	.	.	.	.	.	8B\	.	.	8g/L	.	.	8b/L	.	.	.	.	.	.	.	.	.	.	.	.	.	.	.	.	.	.	.	.
.	.	.	.	.	.	.	.	.	.	.	.	.	.	8A\J	.	.	8a/J	.	.	8cc/J	.	.	.	.	.	.	.	.	.	.	.	.	.	.	.	.	.	.	.	.
.	.	.	.	.	.	.	.	.	.	.	.	.	.	4G/)	-sa	.	4b/)	.	.	4dd\)	-sa	.	.	.	.	.	.	.	.	.	.	.	.	.	.	.	.	.	.	.
.	.	.	.	.	.	.	.	.	.	.	.	.	.	4G/	i-	.	4b/	.	.	4dd\	i-	.	.	.	.	.	.	.	.	.	.	.	.	.	.	.	.	.	.	.
=44	=44	=44	=44	=44	=44	=44	=44	=44	=44	=44	=44	=44	=44	=44	=44	=44	=44	=44	=44	=44	=44	=44	=44	=44	=44	=44	=44	=44	=44	=44	=44	=44	=44	=44	=44	=44	=44	=44	=44	=44
1ryy	1ryy	.	1ryy	.	1ryy	.	1ryy	.	1ryy	.	1r	.	.	2F#/	-dzie-	.	2cc/	.	.	2ee^\	-dzie-	.	1ryy	.	1ryy	.	1ryy	.	1ryy	.	1ryy	.	1ryy	.	1ryy	.	1ryy	.	1ryy	.
.	.	.	.	.	.	.	.	.	.	.	.	.	.	4G/	-my	.	4b/	.	.	4dd\	-my	.	.	.	.	.	.	.	.	.	.	.	.	.	.	.	.	.	.	.
.	.	.	.	.	.	.	.	.	.	.	.	.	.	4c\	przy-	.	4a/	.	.	4cc\	przy-	.	.	.	.	.	.	.	.	.	.	.	.	.	.	.	.	.	.	.
!!LO:PB:g=original
=45	=45	=45	=45	=45	=45	=45	=45	=45	=45	=45	=45	=45	=45	=45	=45	=45	=45	=45	=45	=45	=45	=45	=45	=45	=45	=45	=45	=45	=45	=45	=45	=45	=45	=45	=45	=45	=45	=45	=45	=45
1ryy	1ryy	.	1ryy	.	1ryy	.	1ryy	.	1ryy	.	1r	.	.	2d\	-kła-	.	(4.gS/	.	.	(4.bS\	-kła-	.	1ryy	.	1ryy	.	1ryy	.	1ryy	.	1ryy	.	1ryy	.	1ryy	.	1ryy	.	1ryy	.
.	.	.	.	.	.	.	.	.	.	.	.	.	.	.	.	.	8a/)	.	.	8cc\	.	.	.	.	.	.	.	.	.	.	.	.	.	.	.	.	.	.	.	.
.	.	.	.	.	.	.	.	.	.	.	.	.	.	4d\	-dy	.	4f#/	.	.	4a/)	-dy	.	.	.	.	.	.	.	.	.	.	.	.	.	.	.	.	.	.	.
.	.	.	.	.	.	.	.	.	.	.	.	.	.	4r	.	.	4r	.	.	4r	.	.	.	.	.	.	.	.	.	.	.	.	.	.	.	.	.	.	.	.
=46	=46	=46	=46	=46	=46	=46	=46	=46	=46	=46	=46	=46	=46	=46	=46	=46	=46	=46	=46	=46	=46	=46	=46	=46	=46	=46	=46	=46	=46	=46	=46	=46	=46	=46	=46	=46	=46	=46	=46	=46
1ryy	1ryy	.	1ryy	.	1ryy	.	1ryy	.	1ryy	.	1r	.	.	2e^<\	Czy-	.	2e/	.	.	2g^>/	Czy-	.	1ryy	.	1ryy	.	1ryy	.	1ryy	.	1ryy	.	1ryy	.	1ryy	.	1ryy	.	1ryy	.
.	.	.	.	.	.	.	.	.	.	.	.	.	.	2d^<\	-li	.	2f#/	.	.	2a^>/	-li	.	.	.	.	.	.	.	.	.	.	.	.	.	.	.	.	.	.	.
=47	=47	=47	=47	=47	=47	=47	=47	=47	=47	=47	=47	=47	=47	=47	=47	=47	=47	=47	=47	=47	=47	=47	=47	=47	=47	=47	=47	=47	=47	=47	=47	=47	=47	=47	=47	=47	=47	=47	=47	=47
1ryy	1ryy	.	1ryy	.	1ryy	.	1ryy	.	1ryy	.	1r	.	.	4.G/	w_szczę-	.	4.g/	.	.	4.b\	w_szczę-	.	1ryy	.	1ryy	.	1ryy	.	1ryy	.	1ryy	.	1ryy	.	1ryy	.	1ryy	.	1ryy	.
.	.	.	.	.	.	.	.	.	.	.	.	.	.	8B\	-ściu	.	8g/	.	.	8dd\	-ściu	.	.	.	.	.	.	.	.	.	.	.	.	.	.	.	.	.	.	.
.	.	.	.	.	.	.	.	.	.	.	.	.	.	4e\	czy	.	4e/	.	.	4g/	czy	.	.	.	.	.	.	.	.	.	.	.	.	.	.	.	.	.	.	.
.	.	.	.	.	.	.	.	.	.	.	.	.	.	4c#X\	w_nie-	.	4e/	.	.	4a/	w_nie-	.	.	.	.	.	.	.	.	.	.	.	.	.	.	.	.	.	.	.
=48	=48	=48	=48	=48	=48	=48	=48	=48	=48	=48	=48	=48	=48	=48	=48	=48	=48	=48	=48	=48	=48	=48	=48	=48	=48	=48	=48	=48	=48	=48	=48	=48	=48	=48	=48	=48	=48	=48	=48	=48
1ryy	1ryy	.	1ryy	.	1ryy	.	1ryy	.	1ryy	.	1r	.	.	2d\	-do-	.	2g/	.	.	2b/	-do-	.	1ryy	.	1ryy	.	1ryy	.	1ryy	.	1ryy	.	1ryy	.	1ryy	.	1ryy	.	1ryy	.
.	.	.	.	.	.	.	.	.	.	.	.	.	.	2d\	-li	.	2f#/	.	.	2a/	-li	.	.	.	.	.	.	.	.	.	.	.	.	.	.	.	.	.	.	.
=49	=49	=49	=49	=49	=49	=49	=49	=49	=49	=49	=49	=49	=49	=49	=49	=49	=49	=49	=49	=49	=49	=49	=49	=49	=49	=49	=49	=49	=49	=49	=49	=49	=49	=49	=49	=49	=49	=49	=49	=49
!	!	!	!	!	!	!	!	!	!	!	!	!	!LO:DY:a	!	!	!LO:DY:a	!	!	!LO:DY:a	!	!	!LO:DY:a	!	!	!	!	!	!	!	!	!	!	!	!	!	!	!	!	!	!
1ryy	1ryy	.	1ryy	.	1ryy	.	1ryy	.	1ryy	.	2D#X\	On	f	2B\	.	f	2f#/	.	f	2bS\	On	f	1ryy	.	1ryy	.	1ryy	.	1ryy	.	1ryy	.	1ryy	.	1ryy	.	1ryy	.	1ryy	.
.	.	.	.	.	.	.	.	.	.	.	4D#\	nam	.	4B\	.	.	4f#/	.	.	4ff#\	nam	.	.	.	.	.	.	.	.	.	.	.	.	.	.	.	.	.	.	.
.	.	.	.	.	.	.	.	.	.	.	4D#\	po-	.	4B\	.	.	4f#/	.	.	4a/	po-	.	.	.	.	.	.	.	.	.	.	.	.	.	.	.	.	.	.	.
!!LO:PB:g=original
=50	=50	=50	=50	=50	=50	=50	=50	=50	=50	=50	=50	=50	=50	=50	=50	=50	=50	=50	=50	=50	=50	=50	=50	=50	=50	=50	=50	=50	=50	=50	=50	=50	=50	=50	=50	=50	=50	=50	=50	=50
1ryy	1ryy	.	1ryy	.	1ryy	.	1ryy	.	1ryy	.	2E\	-ka-	.	2B\	.	.	2e/	.	.	(>4a/	-ka-	.	1ryy	.	1ryy	.	1ryy	.	1ryy	.	1ryy	.	1ryy	.	1ryy	.	1ryy	.	1ryy	.
.	.	.	.	.	.	.	.	.	.	.	.	.	.	.	.	.	.	.	.	8g/L	.	.	.	.	.	.	.	.	.	.	.	.	.	.	.	.	.	.	.	.
.	.	.	.	.	.	.	.	.	.	.	.	.	.	.	.	.	.	.	.	8f#/J	.	.	.	.	.	.	.	.	.	.	.	.	.	.	.	.	.	.	.	.
.	.	.	.	.	.	.	.	.	.	.	4E\	-zał	.	4B\	.	.	4e/	.	.	4g/	-zał	.	.	.	.	.	.	.	.	.	.	.	.	.	.	.	.	.	.	.
.	.	.	.	.	.	.	.	.	.	.	4E\	i	.	4G/	.	.	4e/	.	.	4b/)	i	.	.	.	.	.	.	.	.	.	.	.	.	.	.	.	.	.	.	.
=51	=51	=51	=51	=51	=51	=51	=51	=51	=51	=51	=51	=51	=51	=51	=51	=51	=51	=51	=51	=51	=51	=51	=51	=51	=51	=51	=51	=51	=51	=51	=51	=51	=51	=51	=51	=51	=51	=51	=51	=51
1ryy	1ryy	.	1ryy	.	1ryy	.	1ryy	.	1ryy	.	2AA/	wzo-	.	2A\	.	.	2e/	.	.	2cc\	wzo-	.	1ryy	.	1ryy	.	1ryy	.	1ryy	.	1ryy	.	1ryy	.	1ryy	.	1ryy	.	1ryy	.
.	.	.	.	.	.	.	.	.	.	.	4D/	-ry	.	4A\	.	.	4f#/	.	.	4a/	-ry	.	.	.	.	.	.	.	.	.	.	.	.	.	.	.	.	.	.	.
.	.	.	.	.	.	.	.	.	.	.	4F#\	i	.	4A\	.	.	4d/	.	.	4dd\	i	.	.	.	.	.	.	.	.	.	.	.	.	.	.	.	.	.	.	.
=52	=52	=52	=52	=52	=52	=52	=52	=52	=52	=52	=52	=52	=52	=52	=52	=52	=52	=52	=52	=52	=52	=52	=52	=52	=52	=52	=52	=52	=52	=52	=52	=52	=52	=52	=52	=52	=52	=52	=52	=52
1ryy	1ryy	.	1ryy	.	1ryy	.	1ryy	.	1ryy	.	2G\	śla-	.	(4.c#X\	.	.	(>4.e/	.	.	(4.a#X^>/	śla-	.	1ryy	.	1ryy	.	1ryy	.	1ryy	.	1ryy	.	1ryy	.	1ryy	.	1ryy	.	1ryy	.
.	.	.	.	.	.	.	.	.	.	.	.	.	.	8d\)	.	.	8d/)	.	.	8b/)	.	.	.	.	.	.	.	.	.	.	.	.	.	.	.	.	.	.	.	.
.	.	.	.	.	.	.	.	.	.	.	4G\	-dy	.	4d\	.	.	4d/	.	.	4b/	-dy	.	.	.	.	.	.	.	.	.	.	.	.	.	.	.	.	.	.	.
.	.	.	.	.	.	.	.	.	.	.	4r	.	.	4r	.	.	4r	.	.	4r	.	.	.	.	.	.	.	.	.	.	.	.	.	.	.	.	.	.	.	.
=53	=53	=53	=53	=53	=53	=53	=53	=53	=53	=53	=53	=53	=53	=53	=53	=53	=53	=53	=53	=53	=53	=53	=53	=53	=53	=53	=53	=53	=53	=53	=53	=53	=53	=53	=53	=53	=53	=53	=53	=53
!	!	!	!	!	!	!	!	!	!	!	!	!	!	!	!	!	!	!	!	!LO:TX:a:t=Solo	!	!	!	!	!	!	!	!	!	!	!	!	!	!	!	!	!	!	!	!
1ryy	1ryy	.	1ryy	.	1ryy	.	1ryy	.	1ryy	.	2B\	Jak-	.	2d\	.	.	2g/	.	.	2dd\	Jak	.	1ryy	.	1ryy	.	1ryy	.	1ryy	.	1ryy	.	1ryy	.	1ryy	.	1ryy	.	1ryy	.
.	.	.	.	.	.	.	.	.	.	.	2B\	-żyć	.	2d\	.	.	2g/	.	.	2g/	żyć	.	.	.	.	.	.	.	.	.	.	.	.	.	.	.	.	.	.	.
=54	=54	=54	=54	=54	=54	=54	=54	=54	=54	=54	=54	=54	=54	=54	=54	=54	=54	=54	=54	=54	=54	=54	=54	=54	=54	=54	=54	=54	=54	=54	=54	=54	=54	=54	=54	=54	=54	=54	=54	=54
1ryy	1ryy	.	1ryy	.	1ryy	.	1ryy	.	1ryy	.	2A\	we-	.	(4c\	.	.	(4e/	.	.	2cc\	we-	.	1ryy	.	1ryy	.	1ryy	.	1ryy	.	1ryy	.	1ryy	.	1ryy	.	1ryy	.	1ryy	.
.	.	.	.	.	.	.	.	.	.	.	.	.	.	4d\)	.	.	4f#/)	.	.	.	.	.	.	.	.	.	.	.	.	.	.	.	.	.	.	.	.	.	.	.
!	!	!	!	!	!	!	!	!	!	!	!	!	!	!LO:SIC:v:s=2d	!	!	!	!	!	!	!	!	!	!	!	!	!	!	!	!	!	!	!	!	!	!	!	!	!	!
.	.	.	.	.	.	.	.	.	.	.	2G\	-dług	.	2e\	.	.	2g/	.	.	2b\	-dług	.	.	.	.	.	.	.	.	.	.	.	.	.	.	.	.	.	.	.
!!LO:PB:g=original
=55	=55	=55	=55	=55	=55	=55	=55	=55	=55	=55	=55	=55	=55	=55	=55	=55	=55	=55	=55	=55	=55	=55	=55	=55	=55	=55	=55	=55	=55	=55	=55	=55	=55	=55	=55	=55	=55	=55	=55	=55
1ryy	1ryy	.	1ryy	.	1ryy	.	1ryy	.	1ryy	.	2.D\	Oj-	.	2.d\	.	.	(>4g/	.	.	2.a/	Oj-	.	1ryy	.	1ryy	.	1ryy	.	1ryy	.	1ryy	.	1ryy	.	1ryy	.	1ryy	.	1ryy	.
.	.	.	.	.	.	.	.	.	.	.	.	.	.	.	.	.	8f#/L	.	.	.	.	.	.	.	.	.	.	.	.	.	.	.	.	.	.	.	.	.	.	.
.	.	.	.	.	.	.	.	.	.	.	.	.	.	.	.	.	8e/J	.	.	.	.	.	.	.	.	.	.	.	.	.	.	.	.	.	.	.	.	.	.	.
.	.	.	.	.	.	.	.	.	.	.	.	.	.	.	.	.	4f#/)	.	.	.	.	.	.	.	.	.	.	.	.	.	.	.	.	.	.	.	.	.	.	.
.	.	.	.	.	.	.	.	.	.	.	4D\	-ca	.	4d\	.	.	4f#/	.	.	4dd\	-ca	.	.	.	.	.	.	.	.	.	.	.	.	.	.	.	.	.	.	.
=56	=56	=56	=56	=56	=56	=56	=56	=56	=56	=56	=56	=56	=56	=56	=56	=56	=56	=56	=56	=56	=56	=56	=56	=56	=56	=56	=56	=56	=56	=56	=56	=56	=56	=56	=56	=56	=56	=56	=56	=56
1ryy	1ryy	.	1ryy	.	1ryy	.	1ryy	.	1ryy	.	(4E\	wo-	.	(4c\	.	.	4g/	.	.	2cc^\	wo-	.	1ryy	.	1ryy	.	1ryy	.	1ryy	.	1ryy	.	1ryy	.	1ryy	.	1ryy	.	1ryy	.
.	.	.	.	.	.	.	.	.	.	.	4F#\)	.	.	4d\	.	.	4a/	.	.	.	.	.	.	.	.	.	.	.	.	.	.	.	.	.	.	.	.	.	.	.
.	.	.	.	.	.	.	.	.	.	.	2G\	-li	.	2e\)	.	.	2g/	.	.	2b\	-li	.	.	.	.	.	.	.	.	.	.	.	.	.	.	.	.	.	.	.
=57	=57	=57	=57	=57	=57	=57	=57	=57	=57	=57	=57	=57	=57	=57	=57	=57	=57	=57	=57	=57	=57	=57	=57	=57	=57	=57	=57	=57	=57	=57	=57	=57	=57	=57	=57	=57	=57	=57	=57	=57
!	!	!	!	!	!	!	!	!	!	!	!	!	!	!	!	!	!	!	!LO:DY:a	!LO:TX:a:t=tutti	!	!LO:DY:a	!	!	!	!	!	!	!	!	!	!	!	!	!	!	!	!	!	!
1ryy	1ryy	.	1ryy	.	1ryy	.	1ryy	.	1ryy	.	2B\	Jak	.	2d\	.	.	2g/	.	<	2dd\	Jak	<	1ryy	.	1ryy	.	1ryy	.	1ryy	.	1ryy	.	1ryy	.	1ryy	.	1ryy	.	1ryy	.
.	.	.	.	.	.	.	.	.	.	.	2B\	żyć	.	2d#X\	.	.	2g/	.	[[	2dd#X\	żyć	[[	.	.	.	.	.	.	.	.	.	.	.	.	.	.	.	.	.	.
=58	=58	=58	=58	=58	=58	=58	=58	=58	=58	=58	=58	=58	=58	=58	=58	=58	=58	=58	=58	=58	=58	=58	=58	=58	=58	=58	=58	=58	=58	=58	=58	=58	=58	=58	=58	=58	=58	=58	=58	=58
!	!	!	!	!	!	!	!	!	!	!	!	!	!LO:DY:a	!	!	!LO:DY:a	!	!	!LO:DY:a	!	!	!LO:DY:a	!	!	!	!	!	!	!	!	!	!	!	!	!	!	!	!	!	!
1ryy	1ryy	.	1ryy	.	1ryy	.	1ryy	.	1ryy	.	(4..c\	we-	f	2e\	.	f	4..g/	.	f	(4..ee\	we-	f	1ryy	.	1ryy	.	1ryy	.	1ryy	.	1ryy	.	1ryy	.	1ryy	.	1ryy	.	1ryy	.
.	.	.	.	.	.	.	.	.	.	.	16c#X\	.	.	.	.	.	16b-X\	.	.	16gg\	.	.	.	.	.	.	.	.	.	.	.	.	.	.	.	.	.	.	.	.
.	.	.	.	.	.	.	.	.	.	.	8c#\)	-dług	.	8e\	.	.	8b-\	.	.	8gg\)	-dług	.	.	.	.	.	.	.	.	.	.	.	.	.	.	.	.	.	.	.
.	.	.	.	.	.	.	.	.	.	.	8r;	.	.	8r;	.	.	8r;	.	.	8r;	.	.	.	.	.	.	.	.	.	.	.	.	.	.	.	.	.	.	.	.
!	!	!	!	!	!	!	!	!	!	!	!	!	!LO:DY:a	!	!	!LO:DY:a	!	!	!LO:DY:a	!	!	!LO:DY:a	!	!	!	!	!	!	!	!	!	!	!	!	!	!	!	!	!	!
.	.	.	.	.	.	.	.	.	.	.	8.C#X/	Oj-	p	8.e\	.	p	8.e/	.	p	8.g/	Oj-	p	.	.	.	.	.	.	.	.	.	.	.	.	.	.	.	.	.	.
.	.	.	.	.	.	.	.	.	.	.	16C#/	-ca	.	16e\	.	.	16e/	.	.	16a/	-ca	.	.	.	.	.	.	.	.	.	.	.	.	.	.	.	.	.	.	.
=59	=59	=59	=59	=59	=59	=59	=59	=59	=59	=59	=59	=59	=59	=59	=59	=59	=59	=59	=59	=59	=59	=59	=59	=59	=59	=59	=59	=59	=59	=59	=59	=59	=59	=59	=59	=59	=59	=59	=59	=59
1ryy	1ryy	.	1ryy	.	1ryy	.	1ryy	.	1ryy	.	(2..D\	wo	.	(2d\	.	.	(2g/	.	.	(2b/	wo	.	1ryy	.	1ryy	.	1ryy	.	1ryy	.	1ryy	.	1ryy	.	1ryy	.	1ryy	.	1ryy	.
.	.	.	.	.	.	.	.	.	.	.	.	.	.	.	.	.	.	.	.	(8qb/	.	.	.	.	.	.	.	.	.	.	.	.	.	.	.	.	.	.	.	.
.	.	.	.	.	.	.	.	.	.	.	.	.	.	4.c\	.	.	4.f#/	.	.	4.a/)	.	.	.	.	.	.	.	.	.	.	.	.	.	.	.	.	.	.	.	.
!	!	!	!	!	!	!	!	!	!	!	!LO:TX:a:t=ostatni dźwięk w następnej części &colon;)	!	!	!LO:TX:a:t=ostatni dźwięk w następnej części &colon;)	!	!	!LO:TX:a:t=ostatni dźwięk w następnej części &colon;)	!	!	!LO:TX:a:t=ostatni dźwięk w następnej części &colon;)	!	!	!	!	!	!	!	!	!	!	!	!	!	!	!	!	!	!	!	!
.	.	.	.	.	.	.	.	.	.	.	8G\)	.	.	8B\)	.	.	8g/)	.	.	8g/)	.	.	.	.	.	.	.	.	.	.	.	.	.	.	.	.	.	.	.	.
!!LO:PB:g=original
==	==	==	==	==	==	==	==	==	==	==	==	==	==	==	==	==	==	==	==	==	==	==	==	==	==	==	==	==	==	==	==	==	==	==	==	==	==	==	==	==
*-	*-	*-	*-	*-	*-	*-	*-	*-	*-	*-	*-	*-	*-	*-	*-	*-	*-	*-	*-	*-	*-	*-	*-	*-	*-	*-	*-	*-	*-	*-	*-	*-	*-	*-	*-	*-	*-	*-	*-	*-
!!!system-decoration: s1,s2,s3,s4,s5,s6[(g1)][(s10,s11,s12,s13)][(g2,s16)][(s17,s18)]s19
!!!RDF**kern: < = below
!!!RDF**kern: > = above
!!!RDF**kern: | = vertical stroke
!!!ENC: Marta Chmielewska
!!!END: 2021-04-30
!!!ENC:Berenika Jozajtis
!!!END:2021-04-14
